!!!!SEGMENT: pl-sa--l-1643--064_anonim--magnificat-tertii-toni-per-natali-domini.krn
!!!cenid: 16xx:1422
!!!COM: Anonim
!!!COM-rismID: pe30004985
!!!CDT:
!!!CNT:
!!!OTL: Magnificat Tertii Toni Per Natali Domini
!!!PDT:
!!!AGN: Sacred
!!!SMS-siglum: PL-SA
!!!SMS-shelfmark: L 1643
!!!SMS-shelfwork: 064 W
!!!SMS-variant:
!!!SMS-altvar:
!!!NIFC-rismSourceID: 1001064471
!!!NIFC-islandoraID:
!!!URL-pdf-islandora:
!!!URL-scan:
!!!ONB-nifc: UWAGA: 8 ksiąg. Primi chori: 1mus Cantus (104-107), C 2dus (103-105), C 3tius (98-101), Bassus (100-103); Secondi chori: Primus Cantus (95-98), C 2dus (98-101), Altus (94-96), Bassus (98-101). UWAGA: Nie dodawać pustych linii, chyba że w rękopisie pojawiają się dodatkowe oznaczenia dotyczące pełnej obsady (a 4, a 8 itp.)
!!!AIN: 8 empty
!!!key:
**kern	**text	**kern	**text	**kern	**text	**kern	**text	**kern	**text	**kern	**text	**kern	**text	**kern	**text
*part8	*part8	*part7	*part7	*part6	*part6	*part5	*part5	*part4	*part4	*part3	*part3	*part2	*part2	*part1	*part1
*staff8	*staff8	*staff7	*staff7	*staff6	*staff6	*staff5	*staff5	*staff4	*staff4	*staff3	*staff3	*staff2	*staff2	*staff1	*staff1
*Iempty	*	*Iempty	*	*Iempty	*	*Iempty	*	*Iempty	*	*Iempty	*	*Iempty	*	*Iempty	*
*I"Secundi chori: Bassus	*	*I"Secundi chori: Altus	*	*I"Secundi chori: C 2dus	*	*I"Secondi chori: Primus Cantus	*	*I"Primi chori: Bassus	*	*I"Primi chori: C 3tius	*	*I"Primi chori: C 2dus	*	*I"Primi chori: 1mus Cantus	*
*I'Coro 2 B	*	*I'Coro 2 A	*	*I'Coro 2 C 2	*	*I'Coro 2 C 1	*	*I'Coro 1 B	*	*I'Coro 1 C 3	*	*I'Coro 1 C 2	*	*I'Coro 1 C 1	*
*clefC3	*	*clefC2	*	*clefC1	*	*clefG2	*	*clefC3	*	*clefC2	*	*clefC1	*	*clefG2	*
*k[]	*	*k[]	*	*k[]	*	*k[]	*	*k[]	*	*k[]	*	*k[]	*	*k[]	*
*G:	*	*G:	*	*G:	*	*G:	*	*G:	*	*G:	*	*G:	*	*G:	*
*M3/1	*	*M3/1	*	*M3/1	*	*M3/1	*	*M3/1	*	*M3/1	*	*M3/1	*	*M3/1	*
=1-	=1-	=1-	=1-	=1-	=1-	=1-	=1-	=1-	=1-	=1-	=1-	=1-	=1-	=1-	=1-
!!LO:TX:t=P:problem:oddech jako rozdzielacz słów:global
1%6r	.	1%6r	.	1%6r	.	1%6r	.	1%6r	.	1%6r	.	1%6r	.	1dd	Et
.	.	.	.	.	.	.	.	.	.	.	.	.	.	1dd	e-
.	.	.	.	.	.	.	.	.	.	.	.	.	.	1b	-xul-
=2-	=2-	=2-	=2-	=2-	=2-	=2-	=2-	=2-	=2-	=2-	=2-	=2-	=2-	=2-	=2-
.	.	.	.	.	.	.	.	.	.	.	.	.	.	2g/	-ta-
.	.	.	.	.	.	.	.	.	.	.	.	.	.	2a/	.
.	.	.	.	.	.	.	.	.	.	.	.	.	.	2b/	.
.	.	.	.	.	.	.	.	.	.	.	.	.	.	2cc/	.
!	!	!	!	!	!	!	!	!	!	!	!	!	!	!LO:TX:t=P:problem=kreska pseudotaktowa	!
.	.	.	.	.	.	.	.	.	.	.	.	.	.	1dd	-vit
=3-	=3-	=3-	=3-	=3-	=3-	=3-	=3-	=3-	=3-	=3-	=3-	=3-	=3-	=3-	=3-
1G	Et	1g	Et	1b	Et	1dd	Et	1G	Et	1d	Et	1b	Et	1%6r	.
1G	e-	1g	e-	1b	e-	1dd	e-	1B	e-	1d	e-	1b	e-	.	.
1G	-xul-	1d	-xul-	1b	-xul-	1b	-xul-	1G	-xul-	1g	-xul	1dd	-xul-	.	.
=4-	=4-	=4-	=4-	=4-	=4-	=4-	=4-	=4-	=4-	=4-	=4-	=4-	=4-	=4-	=4-
0G	-ta-	0d	-ta-	0dd	-ta-	2g/	-ta-	2d\	-ta-	0g	ta-	1.b	-ta-	.	.
.	.	.	.	.	.	2a/	.	2c\	.	.	.	.	.	.	.
.	.	.	.	.	.	2b/	.	2B/	.	.	.	.	.	.	.
*	*	*	*	*	*	*2\right	*	*	*	*	*	*	*	*	*
.	.	.	.	.	.	2cc\	.	2A/	.	.	.	2a\	.	.	.
*	*	*	*	*	*	*2\left	*	*	*	*	*	*	*	*	*
1G	-vit	1d	-vit	1b	-vit	1dd	-vit.	1G,<	-vit	1g	-vit	1g	-vit	.	.
=5-	=5-	=5-	=5-	=5-	=5-	=5-	=5-	=5-	=5-	=5-	=5-	=5-	=5-	=5-	=5-
1%6r	.	1%6r	.	1%6r	.	1%6r	.	1%6r	.	1%6r	.	1%6r	.	(2b\	Spi-
.	.	.	.	.	.	.	.	.	.	.	.	.	.	2a\)	.
.	.	.	.	.	.	.	.	.	.	.	.	.	.	(2b\	-ri-
.	.	.	.	.	.	.	.	.	.	.	.	.	.	2cc\)	.
.	.	.	.	.	.	.	.	.	.	.	.	.	.	1dd	-tus
=6-	=6-	=6-	=6-	=6-	=6-	=6-	=6-	=6-	=6-	=6-	=6-	=6-	=6-	=6-	=6-
.	.	.	.	.	.	.	.	.	.	.	.	.	.	0ee	me-
.	.	.	.	.	.	.	.	.	.	.	.	.	.	1dd,<	-us
=7-	=7-	=7-	=7-	=7-	=7-	=7-	=7-	=7-	=7-	=7-	=7-	=7-	=7-	=7-	=7-
!	!	!	!	!	!	!	!	!	!	!	!	!	!	!LO:LB:g=original	!
1.G	Spi-	1.g	Spi-	1.b	Spi-	(>2b/	Spi-	1.g	Spi-	1g	Spi-	1.dd	Spi-	1%6r	.
.	.	.	.	.	.	2a/)	.	.	.	.	.	.	.	.	.
.	.	.	.	.	.	(>2b/	-ri-	.	.	1d	-ri-	.	.	.	.
2G/	-ri-	2g\	-ri-	2b\	-ri-	2cc/)	.	2g\	-ri-	.	.	2dd\	-ri-	.	.
*	*	*	*	*	*	*custos:ee	*	*	*	*	*	*	*	*	*
1d	-tus	1f	-tus	1a	-tus	1dd	-tus	1d	-tus	1a	-tus	1dd	-tus	.	.
=8-	=8-	=8-	=8-	=8-	=8-	=8-	=8-	=8-	=8-	=8-	=8-	=8-	=8-	=8-	=8-
!	!	!	!	!	!	!LO:PB:g=original	!	!	!	!	!	!	!	!	!
0A	me-	0e	me-	0a	me-	0ee	me-	0a	me-	0a	me-	0cc#X	me-	.	.
*	*	*	*	*	*	*	*	*custos:G	*	*	*	*	*	*	*
1d	-us	1f#X	-us	1a	-us	1dd	-us	1d	-us	1f#X	-us	1dd	-us	.	.
=9-	=9-	=9-	=9-	=9-	=9-	=9-	=9-	=9-	=9-	=9-	=9-	=9-	=9-	=9-	=9-
*	*	*	*	*	*	*	*	*	*	*	*	*custos:b	*	*	*
!	!	!	!	!	!	!	!	!LO:PB:g=original	!	!	!	!	!	!	!
1%6r	.	1%6r	.	1%6r	.	1%6r	.	1%6r	.	1%6r	.	1%6r	.	1.gg	Spi-
.	.	.	.	.	.	.	.	.	.	.	.	.	.	2gg\	-ri-
.	.	.	.	.	.	.	.	.	.	.	.	.	.	1ff	-tus
=10-	=10-	=10-	=10-	=10-	=10-	=10-	=10-	=10-	=10-	=10-	=10-	=10-	=10-	=10-	=10-
.	.	.	.	.	.	.	.	.	.	.	.	.	.	0ee	me-
.	.	.	.	.	.	.	.	.	.	.	.	.	.	1dd	-us
=11-	=11-	=11-	=11-	=11-	=11-	=11-	=11-	=11-	=11-	=11-	=11-	=11-	=11-	=11-	=11-
*	*	*	*ij	*	*ij	*	*	*	*ij	*	*ij	*	*	*	*
!	!	!	!	!	!	!	!	!	!	!	!	!LO:LB:g=original	!	!	!
1.g	Spi-	1g	Spi-	1.dd	Spi-	1.gg	Spi-	1.G	Spi-	1.g	Spi-	(2b\	Spi-	1%6r	.
.	.	.	.	.	.	.	.	.	.	.	.	2a\)	.	.	.
.	.	1d	-ri-	.	.	.	.	.	.	.	.	(2b\	-ri-	.	.
2g\	-ri-	.	.	2dd\	-ri-	2gg\	-ri-	2G/	-ri-	2d/	-ri-	2ccny\)	.	.	.
*	*	*	*	*custos:cc#	*	*	*	*	*	*	*	*	*	*	*
1d	-tus	1a	-tus	1dd	-tus	1ff	-tus	1d	-tus	1a	-tus	1dd	-tus	.	.
=12-	=12-	=12-	=12-	=12-	=12-	=12-	=12-	=12-	=12-	=12-	=12-	=12-	=12-	=12-	=12-
!	!	!	!	!LO:LB:g=original	!	!	!	!	!	!	!	!	!	!	!
0a	me-	0a	me-	0cc#X	me-	0ee	me-	0A	me-	0e	me-	0cc#X	me-	.	.
*custos:G	*	*custos:g	*	*	*	*	*	*	*	*	*	*	*	*	*
1d	-us	1f#X	-us	1dd	-us	1dd	-us	1d	-us	1f#X	-us	1dd	-us	.	.
*	*	*	*Xij	*	*Xij	*	*	*	*Xij	*	*Xij	*	*	*	*
=13-	=13-	=13-	=13-	=13-	=13-	=13-	=13-	=13-	=13-	=13-	=13-	=13-	=13-	=13-	=13-
!LO:LB:g=original	!	!LO:LB:g=original	!	!	!	!	!	!	!	!	!	!	!	!	!
1%6r	.	1%6r	.	1%6r	.	1%6r	.	1%6r	.	1%6r	.	1%6r	.	1dd	in
.	.	.	.	.	.	.	.	.	.	.	.	.	.	1dd	De-
.	.	.	.	.	.	.	.	.	.	.	.	.	.	1cc	-o
=14-	=14-	=14-	=14-	=14-	=14-	=14-	=14-	=14-	=14-	=14-	=14-	=14-	=14-	=14-	=14-
.	.	.	.	.	.	.	.	.	.	.	.	.	.	0b	ſa-
.	.	.	.	.	.	.	.	.	.	.	.	.	.	1dd	-lu-
=15-	=15-	=15-	=15-	=15-	=15-	=15-	=15-	=15-	=15-	=15-	=15-	=15-	=15-	=15-	=15-
1%6r	.	1%6r	.	1%6r	.	1%6r	.	1%6r	.	1%6r	.	1%6r	.	0cc	-ta-
.	.	.	.	.	.	.	.	.	.	.	.	.	.	1b	-ri
=16-	=16-	=16-	=16-	=16-	=16-	=16-	=16-	=16-	=16-	=16-	=16-	=16-	=16-	=16-	=16-
.	.	.	.	.	.	.	.	.	.	.	.	.	.	0a	me-
.	.	.	.	.	.	.	.	.	.	.	.	.	.	1a	-o
=17-	=17-	=17-	=17-	=17-	=17-	=17-	=17-	=17-	=17-	=17-	=17-	=17-	=17-	=17-	=17-
1G	in	1g	in	1b	in	1dd	in	1g	In	1g	in	1b	in	1%6r	.
*	*	*	*	*	*	*	*	*	*	*custos:e	*	*	*	*	*
1G	De-	1d	De-	1b	De-	1dd	De-	1g	De-	1g	De-	1g	De-	.	.
!	!	!	!	!	!	!	!	!	!	!LO:LB:g=original	!	!	!	!	!
1A	-o	1a	-o	1a	-o	1cc	-o	1c	-o	1e	-o	1ccny	-o	.	.
=18-	=18-	=18-	=18-	=18-	=18-	=18-	=18-	=18-	=18-	=18-	=18-	=18-	=18-	=18-	=18-
0B	ſa-	0g	ſa-	2g\	ſa-	0b	sa-	0d	sa-	0g	sa-	2dd\	sa-	.	.
.	.	.	.	2a\	.	.	.	.	.	.	.	2cc\	.	.	.
.	.	.	.	2b\	.	.	.	.	.	.	.	2b\	.	.	.
.	.	.	.	2ccny\	.	.	.	.	.	.	.	2a\	.	.	.
1B	-lu-	1g	-lu-	1dd	-lu-	1dd	-lu-	1g	-lu-	1g	-lu-	1g	-lu-	.	.
=19-	=19-	=19-	=19-	=19-	=19-	=19-	=19-	=19-	=19-	=19-	=19-	=19-	=19-	=19-	=19-
0c	-ta-	1.e	-ta-	0ee	-ta-	0cc	-ta-	0c	-ta-	0g	-ta-	1.g	-ta-	1%6r	.
.	.	2fny\	.	.	.	.	.	.	.	.	.	2a\	.	.	.
1G	-ri	1g	-ri	1dd	-ri	1b	-ri	1g	-ri	1g	-ri	(2b\	-ri	.	.
.	.	.	.	.	.	.	.	.	.	.	.	2cc\)	.	.	.
=20-	=20-	=20-	=20-	=20-	=20-	=20-	=20-	=20-	=20-	=20-	=20-	=20-	=20-	=20-	=20-
0d	me-	0f#X	me-	0dd	me-	0a	me-	0d	me-	0a	me-	0dd	me-	.	.
1d	-o	1f#	-o	1dd	-o	1a	-o	1d	-o	1a	-o	1a	-o	.	.
=21-	=21-	=21-	=21-	=21-	=21-	=21-	=21-	=21-	=21-	=21-	=21-	=21-	=21-	=21-	=21-
1%6r	.	1%6r	.	1%6r	.	1%6r	.	1%6r	.	1%6r	.	1%6r	.	1b	ſa-
.	.	.	.	.	.	.	.	.	.	.	.	.	.	1dd	-lu-
.	.	.	.	.	.	.	.	.	.	.	.	.	.	1b	-ta-
=22-	=22-	=22-	=22-	=22-	=22-	=22-	=22-	=22-	=22-	=22-	=22-	=22-	=22-	=22-	=22-
.	.	.	.	.	.	.	.	.	.	.	.	.	.	0g	-ri
.	.	.	.	.	.	.	.	.	.	.	.	.	.	1b	ſa-
=23-	=23-	=23-	=23-	=23-	=23-	=23-	=23-	=23-	=23-	=23-	=23-	=23-	=23-	=23-	=23-
1%6r	.	1%6r	.	1%6r	.	1%6r	.	1%6r	.	1%6r	.	1%6r	.	0a	-lu-
.	.	.	.	.	.	.	.	.	.	.	.	.	.	1cc	-ta-
=24-	=24-	=24-	=24-	=24-	=24-	=24-	=24-	=24-	=24-	=24-	=24-	=24-	=24-	=24-	=24-
.	.	.	.	.	.	.	.	.	.	.	.	.	.	1b	-ri
.	.	.	.	.	.	.	.	.	.	.	.	.	.	0a	ne-
=25-	=25-	=25-	=25-	=25-	=25-	=25-	=25-	=25-	=25-	=25-	=25-	=25-	=25-	=25-	=25-
!	!	!	!	!	!	!	!	!	!	!	!	!	!	!LO:TX:t=P:problem=kreska pseudotaktowa	!
1.G	ſa-	0d	ſa-	0b	Sa-	1.b	sa-	0g	sa-	0g	sa-	1.dd	Sa-	0.g	-o
2A/	.	.	.	.	.	2cc\	.	.	.	.	.	2cc\	.	.	.
1B	-lu-	1d	-lu-	1b	-lu-	1dd	-lu-	1g	-lu-	1g	-lu-	(>2b\	-lu-	.	.
.	.	.	.	.	.	.	.	.	.	.	.	2a\)	.	.	.
=26-	=26-	=26-	=26-	=26-	=26-	=26-	=26-	=26-	=26-	=26-	=26-	=26-	=26-	=26-	=26-
0c	-ta-	0c	-ta-	0ee	-ta-	0ee	-ta-	0c	-ta-	1.e	-ta-	1.g	-ta-	1%6r	.
*	*	*	*	*	*	*	*	*	*	*	*	*custos:b	*	*	*
.	.	.	.	.	.	.	.	.	.	2fny\	.	2a\	.	.	.
!	!	!	!	!	!	!	!	!	!	!	!	!LO:LB:g=original	!	!	!
1G	-ri	1d	-ri	1b	-ri	1dd	-ri	1g	-ri	1g	-ri	1b,<	-ri	.	.
=27-	=27-	=27-	=27-	=27-	=27-	=27-	=27-	=27-	=27-	=27-	=27-	=27-	=27-	=27-	=27-
0d	me-	0d	me-	0dd	me-	0dd	me-	0d	me-	0f#X	me-	0a	me-	.	.
1G	-o	1d	-o	1b	-o	1dd	-o	1g	-o	1g	-o	1g	-o	.	.
=28-	=28-	=28-	=28-	=28-	=28-	=28-	=28-	=28-	=28-	=28-	=28-	=28-	=28-	=28-	=28-
1%6r	.	1%6r	.	1%6r	.	1%6r	.	1%6r	.	1%6r	.	1%6r	.	0dd	E-
.	.	.	.	.	.	.	.	.	.	.	.	.	.	1b	-ia
=29-	=29-	=29-	=29-	=29-	=29-	=29-	=29-	=29-	=29-	=29-	=29-	=29-	=29-	=29-	=29-
!	!	!	!	!	!	!	!	!	!	!	!	!	!	!LO:PB:g=original	!
.	.	.	.	.	.	.	.	.	.	.	.	.	.	0dd	e-
.	.	.	.	.	.	.	.	.	.	.	.	.	.	1b	-ia
=30-	=30-	=30-	=30-	=30-	=30-	=30-	=30-	=30-	=30-	=30-	=30-	=30-	=30-	=30-	=30-
*	*	*	*	*	*	*	*	*custos:g	*	*	*	*	*	*	*
0G	e-	0d	e-	0b	E-	0dd	e-	0g	E-	1.b	e-	1.b	e-	1%6r	.
.	.	.	.	.	.	.	.	.	.	2a\	-ia	2cc\	-ia	.	.
*	*	*	*	*	*	*custos:dd	*	*	*	*	*	*	*	*	*
!	!	!	!	!	!	!	!	!LO:LB:g=original	!	!	!	!	!	!	!
1G	-ia	1d	-ia	1b	-ia	1b	-ia	1g	-ia	1g	e-	1dd	e-	.	.
=31-	=31-	=31-	=31-	=31-	=31-	=31-	=31-	=31-	=31-	=31-	=31-	=31-	=31-	=31-	=31-
*	*	*	*ij	*	*	*	*	*	*	*lig	*	*	*	*	*
!	!	!	!	!	!	!LO:LB:g=original	!	!	!	!	!	!	!	!	!
0d	e-	0d	e-	0a	e-	0dd	e-	0d	e-	1a	.	0a	.	.	.
.	.	.	.	.	.	.	.	.	.	1d	.	.	.	.	.
*	*	*	*	*	*	*	*	*	*	*Xlig	*	*	*	*	*
1G	-ia	1d	-ia	1g	-ia	1b	-ia	1g	-ia	1d	-ia	1b	-a	.	.
*	*	*	*Xij	*	*	*	*	*	*	*	*	*	*	*	*
=32-	=32-	=32-	=32-	=32-	=32-	=32-	=32-	=32-	=32-	=32-	=32-	=32-	=32-	=32-	=32-
1%6r	.	1%6r	.	1%6r	.	1%6r	.	1%6r	.	1%6r	.	1%6r	.	0g	Vir-
.	.	.	.	.	.	.	.	.	.	.	.	.	.	1a	-go
=33-	=33-	=33-	=33-	=33-	=33-	=33-	=33-	=33-	=33-	=33-	=33-	=33-	=33-	=33-	=33-
.	.	.	.	.	.	.	.	.	.	.	.	.	.	0b	De-
.	.	.	.	.	.	.	.	.	.	.	.	.	.	1cc	-um
=34-	=34-	=34-	=34-	=34-	=34-	=34-	=34-	=34-	=34-	=34-	=34-	=34-	=34-	=34-	=34-
1%6r	.	1%6r	.	1%6r	.	1%6r	.	0g	Vir-	0g	Vir-	0g	Vir-	0b	ge-
*	*	*	*	*	*	*	*	*	*	*custos:g	*	*	*	*	*
.	.	.	.	.	.	.	.	1d	-go	1f#X	-go	1a	-go	1a	-nu-
=35-	=35-	=35-	=35-	=35-	=35-	=35-	=35-	=35-	=35-	=35-	=35-	=35-	=35-	=35-	=35-
!	!	!	!	!	!	!	!	!	!	!LO:LB:g=original	!	!	!	!	!
.	.	.	.	.	.	.	.	0G	De-	0g	De-	2g\	De-	0.b	-it.
.	.	.	.	.	.	.	.	.	.	.	.	2a\	.	.	.
.	.	.	.	.	.	.	.	.	.	.	.	2b\	.	.	.
.	.	.	.	.	.	.	.	.	.	.	.	2g\	.	.	.
.	.	.	.	.	.	.	.	1c	-um	1e	-um	1cc	-um	.	.
=36-	=36-	=36-	=36-	=36-	=36-	=36-	=36-	=36-	=36-	=36-	=36-	=36-	=36-	=36-	=36-
0G	Vir-	0d	Vir-	0g	Vir-	0dd	Vir-	0g	ge-	0g	ge-	0b	ge-	1%6r	.
1d	-go	1d	-go	1a	-go	1dd	-go	1d	-nu-	1f#X	-nu-	1a	-nu-	.	.
=37-	=37-	=37-	=37-	=37-	=37-	=37-	=37-	=37-	=37-	=37-	=37-	=37-	=37-	=37-	=37-
*	*	*lig	*	*	*	*	*	*	*	*	*	*	*	*	*
0G	De-	1d	De-	0b	De-	0dd	De-	0g	-it	0.g	-it	0.b	-it	.	.
.	.	1B	.	.	.	.	.	.	.	.	.	.	.	.	.
*	*	*Xlig	*	*	*	*	*	*	*	*	*	*	*	*	*
1c	-u(m)	1e	-um	1cc	-u(m)	1ee	-um	1r	.	.	.	.	.	.	.
=38-	=38-	=38-	=38-	=38-	=38-	=38-	=38-	=38-	=38-	=38-	=38-	=38-	=38-	=38-	=38-
*custos:d	*	*	*	*	*	*	*	*	*	*	*	*	*	*	*
0g	ge-	0g	ge-	0b	ge-	0dd	ge-	1%6r	.	1%6r	.	1%6r	.	1%3r	.
*	*	*custos:g	*	*	*	*	*	*	*	*	*	*	*	*	*
*	*	*	*	*custos:b	*	*	*	*	*	*	*	*	*	*	*
!LO:LB:g=original	!	!LO:TX:a:t=P:problem=# above	!	!	!	!	!	!	!	!	!	!	!	!	!
1d	-nu-	1f#X	-nu-	1a	-nu-	1dd	-nu-	.	.	.	.	.	.	.	.
=39-	=39-	=39-	=39-	=39-	=39-	=39-	=39-	=39-	=39-	=39-	=39-	=39-	=39-	=39-	=39-
!	!	!LO:LB:g=original	!	!LO:PB:g=original	!	!	!	!	!	!	!	!	!	!	!
0.G	-it	0.g	-it	0.b	-it	0dd	-it	.	.	.	.	.	.	1r	.
.	.	.	.	.	.	.	.	.	.	.	.	.	.	1r	.
.	.	.	.	.	.	1r	.	.	.	.	.	.	.	1dd	E-
=40-	=40-	=40-	=40-	=40-	=40-	=40-	=40-	=40-	=40-	=40-	=40-	=40-	=40-	=40-	=40-
1%3r	.	1%3r	.	1%3r	.	1%3r	.	1%3r	.	1%3r	.	1%3r	.	1b	-ia
.	.	.	.	.	.	.	.	.	.	.	.	.	.	1dd	E-
.	.	.	.	.	.	.	.	.	.	.	.	.	.	1b	-ia
=41-	=41-	=41-	=41-	=41-	=41-	=41-	=41-	=41-	=41-	=41-	=41-	=41-	=41-	=41-	=41-
!	!	!	!	!	!	!	!	!	!	!	!	!	!	!LO:TX:a:t=6	!
1G	e-	1d	e-	1g	E-	1dd	e-	1g	e-	1g	e-	1b	e-	00.dd	E-
1G	-ia	1d	-ia	1g	-ia	1b	-ia	1g	-ia	1g	-ia	1g	-ia	.	.
*	*	*	*	*	*	*	*	*	*	*	*	*	*ij	*	*
1B	e-	1B	e-	1g	e-	1dd	e-	1d	e-	1d	e-	1b	e-	.	.
=42-	=42-	=42-	=42-	=42-	=42-	=42-	=42-	=42-	=42-	=42-	=42-	=42-	=42-	=42-	=42-
1G	-ia	1d	-ia	1b	-ia	1b	-ia	1g	-ia	1d	-ia	1dd	-ia	.	.
*	*	*	*ij	*	*	*	*	*	*	*	*	*	*Xij	*	*
0d	e-	0d	e-	0a	E-	0dd	e-	0d	e-	0d	e-	0a	e-	.	.
=43-	=43-	=43-	=43-	=43-	=43-	=43-	=43-	=43-	=43-	=43-	=43-	=43-	=43-	=43-	=43-
0.G;	-ia	0.d;	-ia	0.g;	-ia.	0.dd;	-ia	0.g;	-ia.	0.d;	-ia	0.b;	-ia	0.b;	-ia.
*	*	*	*Xij	*	*	*	*	*	*	*	*	*	*	*	*
=44||-	=44||-	=44||-	=44||-	=44||-	=44||-	=44||-	=44||-	=44||-	=44||-	=44||-	=44||-	=44||-	=44||-	=44||-	=44||-
*M3/1	*	*M3/1	*	*M3/1	*	*M3/1	*	*M3/1	*	*M3/1	*	*M3/1	*	*M3/1	*
!LO:PB:g=original	!	!	!	!	!	!LO:LB:g=original	!	!LO:LB:g=original	!	!LO:LB:g=original	!	!LO:LB:g=original	!	!LO:LB:g=original	!
1%6r	.	1%6r	.	1%6r	.	1%6r	.	1%3r	.	1%3r	.	1%3r	.	0dd	Qui-
.	.	.	.	.	.	.	.	.	.	.	.	.	.	1dd	-a
=45-	=45-	=45-	=45-	=45-	=45-	=45-	=45-	=45-	=45-	=45-	=45-	=45-	=45-	=45-	=45-
.	.	.	.	.	.	.	.	0g	Qui-	0g	Qui-	0b	Qui-	0dd	fe-
.	.	.	.	.	.	.	.	1d	-a	1f#X	-a	1a	-a	1dd	-cit
=46-	=46-	=46-	=46-	=46-	=46-	=46-	=46-	=46-	=46-	=46-	=46-	=46-	=46-	=46-	=46-
0g	Qui-	0g	Qui-	0b	Qui-	0dd	Qui-	0G	fe-	0g	fe-	0b	fe-	1%6r	.
1d	-a	1f#X	-a	1a	-a	1dd	-a	1d	-cit	1a	-cit	1dd	-cit	.	.
=47-	=47-	=47-	=47-	=47-	=47-	=47-	=47-	=47-	=47-	=47-	=47-	=47-	=47-	=47-	=47-
0G	fe-	0g	fe-	0b	fe-	0dd	fe-	1%6r	.	1%6r	.	1%6r	.	.	.
1d	-cit	1f#X	-cit	1a	-cit	1dd	-cit	.	.	.	.	.	.	.	.
=48-	=48-	=48-	=48-	=48-	=48-	=48-	=48-	=48-	=48-	=48-	=48-	=48-	=48-	=48-	=48-
1%6r	.	1%6r	.	1%6r	.	1%6r	.	.	.	.	.	.	.	0gg	mi-
.	.	.	.	.	.	.	.	.	.	.	.	.	.	1ff	-hi
=49-	=49-	=49-	=49-	=49-	=49-	=49-	=49-	=49-	=49-	=49-	=49-	=49-	=49-	=49-	=49-
.	.	.	.	.	.	.	.	1%3r	.	1%3r	.	1%3r	.	0ee	ma-
.	.	.	.	.	.	.	.	.	.	.	.	.	.	1dd	-gna
=50-	=50-	=50-	=50-	=50-	=50-	=50-	=50-	=50-	=50-	=50-	=50-	=50-	=50-	=50-	=50-
1%6r	.	1%6r	.	1%6r	.	1%6r	.	0G	Qui-	0g	mi-	1.b	mi-	1%6r	.
.	.	.	.	.	.	.	.	.	.	.	.	2cc\	.	.	.
.	.	.	.	.	.	.	.	1d	-a-	1fny	-hi-	1dd	-hi	.	.
=51-	=51-	=51-	=51-	=51-	=51-	=51-	=51-	=51-	=51-	=51-	=51-	=51-	=51-	=51-	=51-
.	.	.	.	.	.	.	.	0A	-fe-	0e	-ma-	0cc#X	ma-	.	.
.	.	.	.	.	.	.	.	1d	-cit	1f#X	-gna	1dd	-gna	.	.
=52-	=52-	=52-	=52-	=52-	=52-	=52-	=52-	=52-	=52-	=52-	=52-	=52-	=52-	=52-	=52-
*	*	*	*	*	*	*	*	*	*	*	*ij	*	*ij	*	*
0G	mi-	0g	mi-	1.b	mi-	0gg	mi-	0g	mi-	0d	mi-	0b	mi-	1%6r	.
.	.	.	.	2cc\	.	.	.	.	.	.	.	.	.	.	.
1d	-hi	1a	-hi	1dd	-hi	1ff	-hi	1d	-hi	1d	-hi-	1a	-hi	.	.
=53-	=53-	=53-	=53-	=53-	=53-	=53-	=53-	=53-	=53-	=53-	=53-	=53-	=53-	=53-	=53-
0A	ma-	0a	ma-	0cc#X	ma-	0ee	ma-	0g	ma-	0e	-ma-	0a	ma-	.	.
1d	-gna	1f#X	-gna	1dd	-gna	1dd	-gna	1d	-gna	1f#X	-gna	1a	-gna	.	.
*	*	*	*	*	*	*	*	*	*	*	*Xij	*	*Xij	*	*
=54-	=54-	=54-	=54-	=54-	=54-	=54-	=54-	=54-	=54-	=54-	=54-	=54-	=54-	=54-	=54-
1%6r	.	1%6r	.	1%6r	.	1%6r	.	1%3r	.	1%3r	.	1%3r	.	1dd	qui
.	.	.	.	.	.	.	.	.	.	.	.	.	.	1b	po-
.	.	.	.	.	.	.	.	.	.	.	.	.	.	1cc#X	-tens
=55-	=55-	=55-	=55-	=55-	=55-	=55-	=55-	=55-	=55-	=55-	=55-	=55-	=55-	=55-	=55-
.	.	.	.	.	.	.	.	1d	qui	1d	qui	1dd	qui	0dd	est
*	*	*	*	*	*	*	*	*	*	*custos:e	*	*	*	*	*
.	.	.	.	.	.	.	.	1G	Po-	1g	Po-	1b	Po-	.	.
!	!	!	!	!	!	!	!	!	!	!LO:LB:g=original	!	!	!	!	!
.	.	.	.	.	.	.	.	1A	-tens	1e	-tens	1cc#X	-tens	1r	.
=56-	=56-	=56-	=56-	=56-	=56-	=56-	=56-	=56-	=56-	=56-	=56-	=56-	=56-	=56-	=56-
1r	.	1r	.	1r	.	1r	.	0d	est	0f#X	eſt	0dd	eſt	1%6r	.
*	*	*	*	*custos:dd	*	*	*	*	*	*	*	*	*	*	*
1r	.	1r	.	1r	.	1r	.	.	.	.	.	.	.	.	.
*	*	*	*	*	*	*	*	*	*	*	*ij	*	*	*	*
*	*	*	*	*	*	*	*	*	*	*	*	*custos:b	*	*	*
!	!	!	!	!LO:LB:g=original	!	!	!	!	!	!	!	!	!	!	!
1d	qui	1d	qui	1dd	qui	1dd	qui	1d	qui	1f#	qui	1dd,<	qui	.	.
=57-	=57-	=57-	=57-	=57-	=57-	=57-	=57-	=57-	=57-	=57-	=57-	=57-	=57-	=57-	=57-
*	*	*	*	*	*	*	*	*	*	*lig	*	*lig	*	*	*
!	!	!	!	!	!	!	!	!	!	!	!	!LO:LB:g=original	!	!	!
0G	Po-	0g	Po-	0b	po-	0b	Po-	0d	Po-	1g	Po-	1b	Po-	.	.
.	.	.	.	.	.	.	.	.	.	1d	.	1dd	.	.	.
*	*	*	*	*	*	*	*	*	*	*Xlig	*	*Xlig	*	*	*
1A	-tens	1e	-tens	1a	-tens	1cc#X	-tens	1a	-tens	1e	-tens	1a,<	-tens	.	.
=58-	=58-	=58-	=58-	=58-	=58-	=58-	=58-	=58-	=58-	=58-	=58-	=58-	=58-	=58-	=58-
0.d	est	0.f#X	est	0.a	est	0.dd	est	0.d	eſt	0.a	est	0.a	est	1%3r	.
*	*	*	*	*	*	*	*	*	*	*	*Xij	*	*	*	*
=59-	=59-	=59-	=59-	=59-	=59-	=59-	=59-	=59-	=59-	=59-	=59-	=59-	=59-	=59-	=59-
*	*	*	*	*	*	*	*	*custos:G	*	*	*	*	*	*	*
1%6r	.	1%6r	.	1%6r	.	1%6r	.	1%6r	.	1%6r	.	1%6r	.	1g	et
.	.	.	.	.	.	.	.	.	.	.	.	.	.	1g	ſan-
.	.	.	.	.	.	.	.	.	.	.	.	.	.	1a	-ctum
=60-	=60-	=60-	=60-	=60-	=60-	=60-	=60-	=60-	=60-	=60-	=60-	=60-	=60-	=60-	=60-
.	.	.	.	.	.	.	.	.	.	.	.	.	.	0b	no-
.	.	.	.	.	.	.	.	.	.	.	.	.	.	1ccny	-men
=61-	=61-	=61-	=61-	=61-	=61-	=61-	=61-	=61-	=61-	=61-	=61-	=61-	=61-	=61-	=61-
!	!	!	!	!	!	!	!	!LO:LB:g=original	!	!	!	!	!	!	!
1%3r	.	1%6r	.	1%6r	.	1%6r	.	1G	et	1d	et	1g	et	0dd	e-
.	.	.	.	.	.	.	.	1G	san-	1g	ſan-	1b	ſan-	.	.
.	.	.	.	.	.	.	.	1A	-ctu(m)	1e	-ctum	1a	-ctum	1cc	-ius
=62-	=62-	=62-	=62-	=62-	=62-	=62-	=62-	=62-	=62-	=62-	=62-	=62-	=62-	=62-	=62-
1G	et	.	.	.	.	.	.	0B	no-	0g	no-	0dd	no-	1%6r	.
1G	san-	.	.	.	.	.	.	.	.	.	.	.	.	.	.
1A	-ctum	.	.	.	.	.	.	1c	-men	1e	-men	1ccny	-men	.	.
=63-	=63-	=63-	=63-	=63-	=63-	=63-	=63-	=63-	=63-	=63-	=63-	=63-	=63-	=63-	=63-
0B	no-	1g	et	1b	et	1dd	et	1%3r	.	1%3r	.	1%3r	.	.	.
.	.	1g	ſan-	1g	ſan-	1dd	san-	.	.	.	.	.	.	.	.
1c	-men	1e	-ctu(m)	1ccny	-ctum	1ee	-ctum	.	.	.	.	.	.	.	.
=64-	=64-	=64-	=64-	=64-	=64-	=64-	=64-	=64-	=64-	=64-	=64-	=64-	=64-	=64-	=64-
*	*	*	*	*	*	*	*	*	*ij	*	*ij	*	*ij	*	*
0G	e-	0g	no-	0b	no-	0dd	no-	1g	et	1g	et	1dd	et	1%6r	.
.	.	.	.	.	.	.	.	1g	ſan-	1g	ſan-	1dd	ſan-	.	.
*custos:g	*	*custos:b	*	*	*	*custos:dd	*	*	*	*	*	*	*	*	*
1c	-ius	1g	-men	1cc,<	-men	1ccny	-men	1c	-ctu(m)	1e	-ctum	1ee	-ctum	.	.
=65-	=65-	=65-	=65-	=65-	=65-	=65-	=65-	=65-	=65-	=65-	=65-	=65-	=65-	=65-	=65-
*	*ij	*	*	*	*ij	*	*ij	*	*	*	*	*	*	*	*
!LO:LB:g=original	!	!LO:LB:g=original	!	!	!	!LO:LB:g=original	!	!	!	!	!	!	!	!	!
1g	et	1b	et	1b	et	1dd	et	0G	no-	0g	no-	0dd	no-	.	.
1g	san-	1g	ſan-	1b	ſan-	1dd	san-	.	.	.	.	.	.	.	.
1c	-ctum	1g	-ctum	1cc	-ctum	1ee	-ctum	1c	-men	1g	-men	1cc	-men	.	.
*	*	*	*	*	*	*	*	*	*Xij	*	*Xij	*	*Xij	*	*
=66-	=66-	=66-	=66-	=66-	=66-	=66-	=66-	=66-	=66-	=66-	=66-	=66-	=66-	=66-	=66-
0G	no-	0g	no-	0b	no-	0dd	no-	1g	et	1b	et	1dd	et	1%6r	.
.	.	.	.	.	.	.	.	1g	ſan-	1g	ſan-	1dd	ſan	.	.
!	!	!	!	!	!	!	!	!	!	!	!	!LO:TX:t=P:problem=niewyraźne źródło	!	!	!
1c	-men	1e	-men	1cc	-men	1cc	-men	1c	-ctu(m)	1g	-ctum	1ryy	.	.	.
*	*	*	*	*	*Xij	*	*Xij	*	*	*	*	*	*	*	*
=67-	=67-	=67-	=67-	=67-	=67-	=67-	=67-	=67-	=67-	=67-	=67-	=67-	=67-	=67-	=67-
0g	e-	0g	e-	0dd	e-	0b	e-	0G	no-	1.g	no-	0dd	no-	.	.
.	.	.	.	.	.	.	.	.	.	2fny\	-men	.	.	.	.
1c	-ius	1g	-ius	1ee	-ius	1cc	-ius	1c	-men	1e	e-	1cc	-men	.	.
*	*Xij	*	*	*	*	*	*	*	*	*	*	*	*	*	*
=68-	=68-	=68-	=68-	=68-	=68-	=68-	=68-	=68-	=68-	=68-	=68-	=68-	=68-	=68-	=68-
1%6r	.	1%6r	.	1%6r	.	1%6r	.	0G	e-	0d	.	0b	e-	1%3r	.
*	*	*	*	*	*	*	*	*	*	*custos:b	*	*	*	*	*
.	.	.	.	.	.	.	.	1c	-ius	1e	-ius	1cc	-ius	.	.
=69-	=69-	=69-	=69-	=69-	=69-	=69-	=69-	=69-	=69-	=69-	=69-	=69-	=69-	=69-	=69-
*	*	*	*	*	*	*	*	*	*	*	*	*	*	*	*ij
!	!	!	!	!	!	!	!	!	!	!LO:LB:g=original	!	!	!	!	!
.	.	.	.	.	.	.	.	1%6r	.	1%6r	.	1%6r	.	1dd	et
.	.	.	.	.	.	.	.	.	.	.	.	.	.	1dd	ſan-
*	*	*	*	*	*	*	*	*	*	*	*	*	*	*custos:b	*
.	.	.	.	.	.	.	.	.	.	.	.	.	.	1cc	-ctum
=70-	=70-	=70-	=70-	=70-	=70-	=70-	=70-	=70-	=70-	=70-	=70-	=70-	=70-	=70-	=70-
!	!	!	!	!	!	!	!	!	!	!	!	!	!	!LO:LB:g=original	!
1%6r	.	1%6r	.	1%6r	.	1%6r	.	.	.	.	.	.	.	0b	no-
.	.	.	.	.	.	.	.	.	.	.	.	.	.	1cc	-men
=71-	=71-	=71-	=71-	=71-	=71-	=71-	=71-	=71-	=71-	=71-	=71-	=71-	=71-	=71-	=71-
.	.	.	.	.	.	.	.	1%3r	.	1%3r	.	1%3r	.	0a	e-
.	.	.	.	.	.	.	.	.	.	.	.	.	.	1g	-ius
*	*	*	*	*	*	*	*	*	*	*	*	*	*	*	*Xij
=72-	=72-	=72-	=72-	=72-	=72-	=72-	=72-	=72-	=72-	=72-	=72-	=72-	=72-	=72-	=72-
*	*	*	*	*	*	*	*	*	*	*	*	*	*ij	*	*
1%6r	.	1%6r	.	1%6r	.	1%6r	.	1G	et	1g	et	1dd	et	1%6r	.
.	.	.	.	.	.	.	.	1G	san-	1b	ſan-	1dd	ſan-	.	.
.	.	.	.	.	.	.	.	1A	-ctum	1a	-ctum	1cc	-ctum	.	.
=73-	=73-	=73-	=73-	=73-	=73-	=73-	=73-	=73-	=73-	=73-	=73-	=73-	=73-	=73-	=73-
*	*	*	*	*	*	*	*	*	*	*	*	*lig	*	*	*
.	.	.	.	.	.	.	.	0B	no-	0g	no-	1b	no-	.	.
*	*	*	*	*	*	*	*	*	*	*	*	*custos:cc	*	*	*
.	.	.	.	.	.	.	.	.	.	.	.	1g	-men	.	.
*	*	*	*	*	*	*	*	*	*	*	*	*Xlig	*	*	*
!	!	!	!	!	!	!	!	!	!	!	!	!LO:PB:g=original	!	!	!
.	.	.	.	.	.	.	.	1c	-men	1e	-men	1cc	e-	.	.
=74-	=74-	=74-	=74-	=74-	=74-	=74-	=74-	=74-	=74-	=74-	=74-	=74-	=74-	=74-	=74-
1%3r	.	1%3r	.	1%3r	.	1%3r	.	0d	e-	0f#X	e-	0a	.	1%6r	.
!	!	!	!	!	!	!	!	!	!	!	!	!LO:SIC:v:s=1a	!	!	!
.	.	.	.	.	.	.	.	1d	-ius	1f#	-ius	1g	-ius	.	.
*	*	*	*	*	*	*	*	*	*	*	*	*	*Xij	*	*
=75-	=75-	=75-	=75-	=75-	=75-	=75-	=75-	=75-	=75-	=75-	=75-	=75-	=75-	=75-	=75-
*	*ij	*	*ij	*	*	*	*	*	*	*	*	*	*	*	*
*	*	*	*	*	*	*	*	*custos:g	*	*	*	*	*	*	*
1G	et	1g	et	1b	et	1dd	et	1%3r	.	1%3r	.	1%3r	.	.	.
1G	san-	1g	ſan-	1b	san-	1dd	san-	.	.	.	.	.	.	.	.
1A	-ctum	1e	-ctum	1a	-ctu(m)	1cc	-ctum	.	.	.	.	.	.	.	.
=76-	=76-	=76-	=76-	=76-	=76-	=76-	=76-	=76-	=76-	=76-	=76-	=76-	=76-	=76-	=76-
!	!	!	!	!	!	!	!	!LO:LB:g=original	!	!	!	!	!	!	!
0B	no-	0d	no-	0g	no-	0b	no-	0g	no-	1.g	no-	0b	no-	1%6r	.
.	.	.	.	.	.	.	.	.	.	2fny\	.	.	.	.	.
1c	-men	1e	-men	1cc	-men	1ee	-men	1g	-men	1e	-men	1g	-men	.	.
=77-	=77-	=77-	=77-	=77-	=77-	=77-	=77-	=77-	=77-	=77-	=77-	=77-	=77-	=77-	=77-
*	*	*	*	*	*	*	*	*	*	*lig	*	*	*	*	*
0d	e-	0f#X	e-	0a	e-	0dd	e-	0d	e-	1a	e-	0a	e-	.	.
.	.	.	.	.	.	.	.	.	.	1d	.	.	.	.	.
*	*	*	*	*	*	*	*	*	*	*Xlig	*	*	*	*	*
1G	-ius	1g	-ius	1b	-ius	1b	-ius	1g	-ius	1d	-ius	1g	-ius	.	.
*	*Xij	*	*Xij	*	*	*	*	*	*	*	*	*	*	*	*
=78-	=78-	=78-	=78-	=78-	=78-	=78-	=78-	=78-	=78-	=78-	=78-	=78-	=78-	=78-	=78-
1%6r	.	1%6r	.	1%6r	.	1%6r	.	1%6r	.	1%6r	.	1%6r	.	0dd	E-
.	.	.	.	.	.	.	.	.	.	.	.	.	.	1b	-ia
=79-	=79-	=79-	=79-	=79-	=79-	=79-	=79-	=79-	=79-	=79-	=79-	=79-	=79-	=79-	=79-
.	.	.	.	.	.	.	.	.	.	.	.	.	.	0dd	e-
.	.	.	.	.	.	.	.	.	.	.	.	.	.	1b	-ia
=80-	=80-	=80-	=80-	=80-	=80-	=80-	=80-	=80-	=80-	=80-	=80-	=80-	=80-	=80-	=80-
*	*	*	*	*	*	*	*	*	*	*	*ij	*	*	*	*
0G	e-	0d	e-	0b	e-	0dd	e-	0g	E-	1.b	e-	1.b	e-	1%6r	.
.	.	.	.	.	.	.	.	.	.	2a\	.	2cc\	.	.	.
1G	-ia	1d	-ia	1b	-ia	1b	-ia	1g	-ia	1g	-ius	1dd	-ia	.	.
*	*	*	*	*	*	*	*	*	*	*	*Xij	*	*	*	*
=81-	=81-	=81-	=81-	=81-	=81-	=81-	=81-	=81-	=81-	=81-	=81-	=81-	=81-	=81-	=81-
*	*	*	*	*	*	*	*	*	*	*lig	*	*	*	*	*
0d	e-	0d	e-	0a	e-	0dd	e-	0d	e-	1a	e-	0a	e-	.	.
.	.	.	.	.	.	.	.	.	.	1d	.	.	.	.	.
*	*	*	*	*	*	*	*	*	*	*Xlig	*	*	*	*	*
1G	-ia	1d	-ia	1g	-ia	1b	-ia	1g	-ia	1d	-ia	1b	-ia	.	.
=82-	=82-	=82-	=82-	=82-	=82-	=82-	=82-	=82-	=82-	=82-	=82-	=82-	=82-	=82-	=82-
1%6r	.	1%6r	.	1%6r	.	1%6r	.	1%6r	.	1%6r	.	1%6r	.	0g	Vir-
.	.	.	.	.	.	.	.	.	.	.	.	.	.	1a	-go
=83-	=83-	=83-	=83-	=83-	=83-	=83-	=83-	=83-	=83-	=83-	=83-	=83-	=83-	=83-	=83-
.	.	.	.	.	.	.	.	.	.	.	.	.	.	0b	De-
.	.	.	.	.	.	.	.	.	.	.	.	.	.	1cc	-um
=84-	=84-	=84-	=84-	=84-	=84-	=84-	=84-	=84-	=84-	=84-	=84-	=84-	=84-	=84-	=84-
*	*	*	*	*custos:g	*	*	*	*	*	*	*	*	*	*	*
1%6r	.	1%6r	.	1%6r	.	1%6r	.	0g	Vir-	0g	Vir-	0g	Vir-	0b	ge-
.	.	.	.	.	.	.	.	1d	-go	1f#X	go	1a	-go	1a	-nu-
=85-	=85-	=85-	=85-	=85-	=85-	=85-	=85-	=85-	=85-	=85-	=85-	=85-	=85-	=85-	=85-
.	.	.	.	.	.	.	.	0G	De-	0g	De-	2g\	De-	0.b	-it
.	.	.	.	.	.	.	.	.	.	.	.	2a\	.	.	.
.	.	.	.	.	.	.	.	.	.	.	.	2b\	.	.	.
.	.	.	.	.	.	.	.	.	.	.	.	2g/	.	.	.
*	*	*	*	*	*	*	*	*	*	*custos:g	*	*	*	*	*
.	.	.	.	.	.	.	.	1c	-um	1e	-um	1cc	-um	.	.
=86-	=86-	=86-	=86-	=86-	=86-	=86-	=86-	=86-	=86-	=86-	=86-	=86-	=86-	=86-	=86-
!	!	!	!	!LO:LB:g=original	!	!	!	!	!	!LO:PB:g=original	!	!	!	!	!
0G	Vir-	0d	Vir-	0g	Vir-	0dd	Vir-	0g	ge-	0g	ge-	0b	ge-	1%6r	.
1d	-go	1d	-go	1a	-go	1dd	-go	1d	-nu-	1f#X	-nu-	1a	-nu-	.	.
=87-	=87-	=87-	=87-	=87-	=87-	=87-	=87-	=87-	=87-	=87-	=87-	=87-	=87-	=87-	=87-
*	*	*lig	*	*	*	*	*	*	*	*	*	*	*	*	*
0G	De-	1d	De-	0b	De-	0dd	De-	0g	-it	0g	-it	0.b	-it	.	.
.	.	1B	.	.	.	.	.	.	.	.	.	.	.	.	.
*	*	*Xlig	*	*	*	*	*	*	*	*	*	*	*	*	*
1c	-um	1e	-um	1cc	-um	1ee	-um	1r	.	1r	.	.	.	.	.
=88-	=88-	=88-	=88-	=88-	=88-	=88-	=88-	=88-	=88-	=88-	=88-	=88-	=88-	=88-	=88-
0g	ge-	0g	ge-	0b	ge-	0dd	ge-	1%6r	.	1%6r	.	1%6r	.	1%3r	.
*	*	*	*	*	*	*custos:dd	*	*	*	*	*	*	*	*	*
1d	-nu-	1f#X	-nu-	1a	-nu-	1dd	-nu-	.	.	.	.	.	.	.	.
=89-	=89-	=89-	=89-	=89-	=89-	=89-	=89-	=89-	=89-	=89-	=89-	=89-	=89-	=89-	=89-
!	!	!	!	!	!	!LO:LB:g=original	!	!	!	!	!	!	!	!	!
0.G	-it	0.g	-it	0.b	-it	0.dd	-it	.	.	.	.	.	.	1r	.
.	.	.	.	.	.	.	.	.	.	.	.	.	.	1r	.
.	.	.	.	.	.	.	.	.	.	.	.	.	.	1dd	E-
=90-	=90-	=90-	=90-	=90-	=90-	=90-	=90-	=90-	=90-	=90-	=90-	=90-	=90-	=90-	=90-
*	*	*custos:d	*	*	*	*	*	*	*	*	*	*	*	*	*
1%3r	.	1%3r	.	1%3r	.	1%3r	.	1%3r	.	1%3r	.	1%3r	.	1b	-ia
.	.	.	.	.	.	.	.	.	.	.	.	.	.	1dd	E-
.	.	.	.	.	.	.	.	.	.	.	.	.	.	1b	-ia
=91-	=91-	=91-	=91-	=91-	=91-	=91-	=91-	=91-	=91-	=91-	=91-	=91-	=91-	=91-	=91-
!	!	!LO:LB:g=original	!	!	!	!	!	!	!	!	!	!	!	!LO:TX:a:t=6	!
1G	e-	1d	e-	1g	e-	1dd	e-	1g	E-	1g	e-	1b	e-	00.dd	e-
1G	-ia	1d	-ia	1g	-ia	1b	-ia	1g	-ia	1g	-ia	1g	-ia	.	.
*	*	*	*	*	*	*	*	*	*	*	*ij	*	*	*	*
*	*	*	*	*	*	*	*	*	*	*	*	*custos:dd	*	*	*
1B	e-	1B	e-	1g	e-	1dd	e-	1d	e-	1d	e-	1b	e-	.	.
=92-	=92-	=92-	=92-	=92-	=92-	=92-	=92-	=92-	=92-	=92-	=92-	=92-	=92-	=92-	=92-
!	!	!	!	!	!	!	!	!	!	!	!	!LO:LB:g=original	!	!	!
1G	-ia	1d	-ia	1b	-ia	1b	-ia	1g	-ia	1d	-ia	1dd	-ia	.	.
*	*	*	*	*	*	*	*	*	*	*	*Xij	*	*	*	*
0d	e-	0d	e-	0a	e-	0dd	e-	0d	e-	0d	e-	0a	e-	.	.
=93-	=93-	=93-	=93-	=93-	=93-	=93-	=93-	=93-	=93-	=93-	=93-	=93-	=93-	=93-	=93-
0.G;	-ia	0.d;	-ia	0.g;	-ia.	0.dd;	-ia.	0.g;	-ia	0.d;	-ia	0.b;	-ia	0.b	-ia
=94||-	=94||-	=94||-	=94||-	=94||-	=94||-	=94||-	=94||-	=94||-	=94||-	=94||-	=94||-	=94||-	=94||-	=94||-	=94||-
*M3/1	*	*M3/1	*	*M3/1	*	*M3/1	*	*M3/1	*	*M3/1	*	*M3/1	*	*M3/1	*
!LO:LB:g=original	!	!	!	!LO:LB:g=original	!	!LO:LB:g=original	!	!LO:LB:g=original	!	!LO:LB:g=original	!	!	!	!LO:LB:g=original	!
1%6r	.	1%6r	.	1%6r	.	1%6r	.	1%6r	.	1%6r	.	1%6r	.	0dd	Fe-
.	.	.	.	.	.	.	.	.	.	.	.	.	.	1dd	-cit
=95-	=95-	=95-	=95-	=95-	=95-	=95-	=95-	=95-	=95-	=95-	=95-	=95-	=95-	=95-	=95-
.	.	.	.	.	.	.	.	.	.	.	.	.	.	1cc	Po-
.	.	.	.	.	.	.	.	.	.	.	.	.	.	1cc	-ten-
.	.	.	.	.	.	.	.	.	.	.	.	.	.	1a	-ti-
=96-	=96-	=96-	=96-	=96-	=96-	=96-	=96-	=96-	=96-	=96-	=96-	=96-	=96-	=96-	=96-
1%6r	.	1%6r	.	1%6r	.	1%6r	.	1%6r	.	1%6r	.	1%6r	.	0b	-am
.	.	.	.	.	.	.	.	.	.	.	.	.	.	1b	in
=97-	=97-	=97-	=97-	=97-	=97-	=97-	=97-	=97-	=97-	=97-	=97-	=97-	=97-	=97-	=97-
.	.	.	.	.	.	.	.	.	.	.	.	.	.	1.a	Bra-
.	.	.	.	.	.	.	.	.	.	.	.	.	.	2a/	-chi-
.	.	.	.	.	.	.	.	.	.	.	.	.	.	1dd	-o
=98-	=98-	=98-	=98-	=98-	=98-	=98-	=98-	=98-	=98-	=98-	=98-	=98-	=98-	=98-	=98-
1%6r	.	1%6r	.	1%6r	.	1%6r	.	1%6r	.	1%6r	.	1%6r	.	1.cc#X	ſu-
.	.	.	.	.	.	.	.	.	.	.	.	.	.	2b\	.
.	.	.	.	.	.	.	.	.	.	.	.	.	.	1cc#	.
=99-	=99-	=99-	=99-	=99-	=99-	=99-	=99-	=99-	=99-	=99-	=99-	=99-	=99-	=99-	=99-
.	.	.	.	.	.	.	.	.	.	.	.	.	.	0.dd	-o
=100-	=100-	=100-	=100-	=100-	=100-	=100-	=100-	=100-	=100-	=100-	=100-	=100-	=100-	=100-	=100-
*M2/1	*	*M2/1	*	*M2/1	*	*M2/1	*	*M2/1	*	*M2/1	*	*M2/1	*	*M2/1	*
*met(C|)	*	*met(C|)	*	*met(C|)	*	*met(C|)	*	*	*	*met(C|)	*	*met(C|)	*	*met(C|)	*
!	!	!	!	!	!	!	!	!LO:TX:t=P:problem=brak zmiany metrum	!	!	!	!	!	!	!
0r	.	0r	.	0r	.	0r	.	1r	.	1r	.	1r	.	4dd\	diſ-
.	.	.	.	.	.	.	.	.	.	.	.	.	.	4dd\	-per-
.	.	.	.	.	.	.	.	.	.	.	.	.	.	4dd\	-ſit
.	.	.	.	.	.	.	.	.	.	.	.	.	.	4ee\	ſu-
.	.	.	.	.	.	.	.	4G/	Dis-	4b\	Dis-	4dd\	Dis-	4dd\	-per-
.	.	.	.	.	.	.	.	4G/	-per-	4b\	-per-	4dd\	-per-	4dd\	-bos
.	.	.	.	.	.	.	.	4G/	-sit	4b\	-sit	4dd\	-sit	2r	.
.	.	.	.	.	.	.	.	4c/	ſu-	4cc\	ſu-	4ee\	su-	.	.
=101-	=101-	=101-	=101-	=101-	=101-	=101-	=101-	=101-	=101-	=101-	=101-	=101-	=101-	=101-	=101-
4G/	Dis-	4g\	Dis-	4b\	Dis-	4dd\	Dis-	4G/	-per-	4b\	-per-	4dd\	-per-	1r	.
4G/	-per-	4g\	-per-	4b\	-per-	4dd\	-per-	4G/	-bos	4b\	-bos	4dd\	-bos	.	.
4G/	-sit	4g\	-ſit	4b\	-ſit	4dd\	-sit	2r	.	2r	.	2r	.	.	.
4c/	su-	4e\	ſu-	4cc\	su-	4ee\	ſu-	.	.	.	.	.	.	.	.
*	*	*	*	*	*	*	*	*	*	*	*	*	*	*	*ij
4G/	-per-	4g\	-per-	4b\	-per-	4dd\	-per-	0r	.	0r	.	0r	.	4dd\	diſ-
4G/	-bos	4g\	-bos	4b\	-bos	4dd\	-bos	.	.	.	.	.	.	4dd\	-per-
2r	.	2r	.	2r	.	2r	.	.	.	.	.	.	.	4dd\	-ſit
*	*	*	*	*	*	*	*	*	*	*	*	*	*	*custos:dd	*
.	.	.	.	.	.	.	.	.	.	.	.	.	.	4ee\	ſu-
=102-	=102-	=102-	=102-	=102-	=102-	=102-	=102-	=102-	=102-	=102-	=102-	=102-	=102-	=102-	=102-
!	!	!	!	!	!	!	!	!	!	!	!	!	!	!LO:LB:g=original	!
00r	.	00r	.	00r	.	00r	.	.	.	.	.	.	.	2dd\	-per-
.	.	.	.	.	.	.	.	.	.	.	.	.	.	4ccny\	-bos
*	*	*	*	*	*	*	*	*	*	*	*	*	*	*	*Xij
.	.	.	.	.	.	.	.	.	.	.	.	.	.	4cc\	me(n)-
.	.	.	.	.	.	.	.	1r	.	1r	.	1r	.	4b/	-te
.	.	.	.	.	.	.	.	.	.	.	.	.	.	4b/	Cor-
.	.	.	.	.	.	.	.	.	.	.	.	.	.	4a/	-dis
.	.	.	.	.	.	.	.	.	.	.	.	.	.	4a/	Su-
=103-	=103-	=103-	=103-	=103-	=103-	=103-	=103-	=103-	=103-	=103-	=103-	=103-	=103-	=103-	=103-
*	*	*	*	*	*	*	*	*	*ij	*	*	*	*ij	*	*
.	.	.	.	.	.	.	.	4G/	Dis-	4b\	dis-	4dd\	Dis-	1g	-i
.	.	.	.	.	.	.	.	4G/	-per-	4b\	-per-	4dd\	-per-	.	.
.	.	.	.	.	.	.	.	4G/	-sit	4b\	-sit	4dd\	-sit	.	.
.	.	.	.	.	.	.	.	4c/	ſu-	4cc\	ſu-	4ee\	su-	.	.
.	.	.	.	.	.	.	.	4G/	-per-	4b\	-per-	4dd\	-per-	00r	.
.	.	.	.	.	.	.	.	4G/	-bos	4b\	-bos	4dd\	-bos	.	.
*	*	*	*	*	*	*	*	*	*Xij	*	*	*	*Xij	*	*
.	.	.	.	.	.	.	.	4A/	men-	4a\	men-	4cc\	men-	.	.
*	*	*	*	*	*	*	*	*	*	*	*	*custos:b	*	*	*
.	.	.	.	.	.	.	.	4A/	-te	4a\	-te	4cc\	-te	.	.
=104-	=104-	=104-	=104-	=104-	=104-	=104-	=104-	=104-	=104-	=104-	=104-	=104-	=104-	=104-	=104-
!	!	!	!	!	!	!	!	!	!	!	!	!LO:LB:g=original	!	!	!
1r	.	1r	.	1r	.	1r	.	4B/	Cor-	4g\	cor-	4b\	cor-	.	.
.	.	.	.	.	.	.	.	4G/	-dis	4g\	-dis	4b\	-dis	.	.
.	.	.	.	.	.	.	.	2d\	ſu-	2f#X\	ſu-	2a\	ſu-	.	.
*	*ij	*	*	*	*ij	*	*ij	*	*	*	*	*	*	*	*
*	*	*	*	*	*	*	*	*	*	*custos:g	*	*	*	*	*
4G/	Dis-	4g\	dis-	4b\	Dis-	4dd\	Dis-	2G/	-i	2g\	-i	2g/	-i.	.	.
4G/	-per-	4g\	-per-	4b\	-per-	4dd\	-per-	.	.	.	.	.	.	.	.
!	!	!	!	!	!	!	!	!	!	!LO:LB:g=original	!	!	!	!	!
4G/	-sit	4g\	-sit	4b\	-ſit	4dd\	-sit	2r	.	2r	.	2r	.	.	.
*	*	*custos:g	*	*	*	*	*	*	*	*	*	*	*	*	*
4c/	su-	4e\	ſu-	4cc\	su-	4ee\	ſu-	.	.	.	.	.	.	.	.
=105-	=105-	=105-	=105-	=105-	=105-	=105-	=105-	=105-	=105-	=105-	=105-	=105-	=105-	=105-	=105-
!	!	!LO:PB:g=original	!	!	!	!	!	!	!	!	!	!	!	!	!
4G/	-per-	4g\	-per-	4b\	-per-	4dd\	-per-	0r	.	0r	.	0r	.	.	.
4G/	-bos	4g\	-bos	4b\	-bos	4dd\	-bos	.	.	.	.	.	.	.	.
*	*Xij	*	*	*	*Xij	*	*Xij	*	*	*	*	*	*	*	*
4A/	men-	4e/	men-	4a\	men-	4cc\	men-	.	.	.	.	.	.	.	.
4A/	-te	4e/	-te	4a\	-te	4cc\	-te	.	.	.	.	.	.	.	.
4B/	cor-	4d/	cor-	4g/	Cor-	4b/	Cor-	.	.	.	.	.	.	1r	.
4G/	-dis	4d/	-dis	4g/	-dis	4b/	-dis	.	.	.	.	.	.	.	.
2d\	su-	2d/	ſu-	2f#X/	ſu-	2a/	ſu-	.	.	.	.	.	.	.	.
=106-	=106-	=106-	=106-	=106-	=106-	=106-	=106-	=106-	=106-	=106-	=106-	=106-	=106-	=106-	=106-
*	*	*	*	*	*	*	*	*custos:g	*	*	*	*	*	*	*
2G/	-i.	2d/	-i	2g/	-i	2g/	-i.	1r	.	1r	.	1r	.	4b/	dis-
.	.	.	.	.	.	.	.	.	.	.	.	.	.	4b/	-per-
2r	.	2r	.	2r	.	2r	.	.	.	.	.	.	.	4a/	-ſit
.	.	.	.	.	.	.	.	.	.	.	.	.	.	4a/	su-
!	!	!	!	!	!	!	!	!LO:PB:g=original	!	!	!	!	!	!	!
1r	.	1r	.	1r	.	1r	.	4g\	dis-	4g\	dis-	4b\	dis-	2dd\	-per-
.	.	.	.	.	.	.	.	4g\	-per-	4g\	-per-	4b\	-per-	.	.
.	.	.	.	.	.	.	.	4d\	-sit	4f#X\	-sit	4a\	-sit	2dd\	-bos
.	.	.	.	.	.	.	.	4d\	ſu-	4f#\	su-	4a\	ſu-	.	.
=107-	=107-	=107-	=107-	=107-	=107-	=107-	=107-	=107-	=107-	=107-	=107-	=107-	=107-	=107-	=107-
4g\	dis-	4g\	dis-	4dd\	Dis-	4b/	dis-	2G/	-per-	2g\	-per-	2dd\	-per-	00r	.
4g\	-per-	4g\	-per-	4b\	-per-	4b/	-per-	.	.	.	.	.	.	.	.
4d\	-ſit	4f#X\	-sit	4dd\	-ſit	4a/	-sit	2d\	-bos	2a\	-bos	2dd\	-bos	.	.
*	*	*	*	*custos:b	*	*	*	*	*	*	*	*	*	*	*
4d\	su-	4f#\	ſu-	4a\	su-	4a/	ſu-	.	.	.	.	.	.	.	.
*	*	*	*	*	*	*	*	*	*ij	*	*ij	*	*ij	*	*
*custos:d	*	*	*	*	*	*	*	*	*	*	*	*	*	*	*
!	!	!	!	!LO:LB:g=original	!	!	!	!	!	!	!	!	!	!	!
2G/	-per-	2g\	-per-	2b\	-per-	2dd\	-per-	4g\	dis-	4g\	dis-	4b\	dis-	.	.
.	.	.	.	.	.	.	.	4g\	-per-	4g\	-per-	4b\	-per-	.	.
*	*	*	*	*	*	*custos:b	*	*	*	*	*	*	*	*	*
!LO:LB:g=original	!	!	!	!	!	!	!	!	!	!	!	!	!	!	!
2d\	-bos	2a\	-bos	2a\	-bos	2dd\	-bos	4d\	-sit	4f#X\	-sit	4a\	-sit	.	.
.	.	.	.	.	.	.	.	4d\	ſu-	4f#\	su-	4a\	ſu-	.	.
=108-	=108-	=108-	=108-	=108-	=108-	=108-	=108-	=108-	=108-	=108-	=108-	=108-	=108-	=108-	=108-
*	*ij	*	*	*	*ij	*	*ij	*	*	*	*	*	*	*	*
!	!	!	!	!	!	!LO:PB:g=original	!	!	!	!	!	!	!	!	!
4g\	dis-	4g\	men-	4dd\	Dis-	4b/	dis-	2G/	-per-	2g\	-per-	2dd\	-per-	.	.
4g\	-per-	4g\	-te	4b\	-per-	4b/	-per-	.	.	.	.	.	.	.	.
4d\	-ſit	4f#X\	cor-	4dd\	-ſit	4a/	-sit	2d\	-bos	2g\	-bos	2dd\	-bos	.	.
*	*	*	*	*	*	*	*	*	*Xij	*	*Xij	*	*Xij	*	*
4d\	su-	4f#\	-dis	4a\	su-	4a/	ſu-	.	.	.	.	.	.	.	.
2G/	-per-	2g\	ſu-	2b\	-per-	2dd\	-per-	00r	.	00r	.	00r	.	.	.
2d\	-bos	2f#X\	-i.	2a\	-bos	2dd\	-bos	.	.	.	.	.	.	.	.
*	*Xij	*	*	*	*Xij	*	*Xij	*	*	*	*	*	*	*	*
=109-	=109-	=109-	=109-	=109-	=109-	=109-	=109-	=109-	=109-	=109-	=109-	=109-	=109-	=109-	=109-
*	*	*	*	*	*	*	*	*	*	*	*	*	*	*	*ij
0r	.	0r	.	0r	.	0r	.	.	.	.	.	.	.	4dd\	dis-
.	.	.	.	.	.	.	.	.	.	.	.	.	.	4dd\	-per-
.	.	.	.	.	.	.	.	.	.	.	.	.	.	4dd\	-ſit
.	.	.	.	.	.	.	.	.	.	.	.	.	.	4ee\	su-
.	.	.	.	.	.	.	.	.	.	.	.	.	.	2dd\	-per-
.	.	.	.	.	.	.	.	.	.	.	.	.	.	4cc\	-bos
*	*	*	*	*	*	*	*	*	*	*	*	*	*	*	*Xij
.	.	.	.	.	.	.	.	.	.	.	.	.	.	4cc\	men-
=110-	=110-	=110-	=110-	=110-	=110-	=110-	=110-	=110-	=110-	=110-	=110-	=110-	=110-	=110-	=110-
1r	.	1r	.	1r	.	1r	.	.	.	.	.	.	.	4b/	-te
.	.	.	.	.	.	.	.	.	.	.	.	.	.	4b/	Cor-
.	.	.	.	.	.	.	.	.	.	.	.	.	.	4a/	-dis
.	.	.	.	.	.	.	.	.	.	.	.	.	.	4a/	ſu-
*	*	*	*	*	*	*	*	*	*	*	*	*	*ij	*	*
4G/	Dis-	4g\	dis-	4b\	Dis-	4dd\	Dis-	4g\	Dis-	4g\	dis-	4dd\	dis-	1g	-i.
4G/	-per-	4g\	-per-	4b\	-per-	4dd\	-per-	4g\	-per-	4g\	-per-	4b\	-per-	.	.
4G/	-ſit	4g\	-sit	4b\	-ſit	4dd\	-sit	4g\	-sit	4g\	-sit	4g/	-sit	.	.
4c/	su-	4e\	ſu-	4cc\	su-	4ee\	ſu-	4c/	su-	4f#X\	ſu-	4g/	ſu-	.	.
=111-	=111-	=111-	=111-	=111-	=111-	=111-	=111-	=111-	=111-	=111-	=111-	=111-	=111-	=111-	=111-
4G/	-per-	4g\	-per-	4b\	-per-	4dd\	-per-	2g\	-per-	4g\	-per-	2g/	-per-	0r	.
4G/	-bos	4g\	-bos	4b\	-bos	4dd\	-bos	.	.	4g\	-bos	.	.	.	.
4A/	men-	4e/	men-	4cc\	men-	4cc\	men-	4c/	-bos	4e\	me(n)-	4cc\	-bos	.	.
*	*	*	*	*	*	*	*	*	*	*	*	*	*Xij	*	*
4A/	-te	4e/	-te	4cc\	-te	4cc\	-te	4e\	me(n)-	4a\	-te	4cc\	men-	.	.
4B/	cor-	4d/	cor-	4g/	Cor-	4b/	Cor-	4g\	-te	4g\	cor-	4dd\	-te	.	.
4G/	-dis	4d/	-dis	4g/	-dis	4b/	-dis	4g\	Cor-	2g\	-dis	4dd\	cor-	.	.
*	*	*custos:d	*	*	*	*	*	*	*	*	*	*	*	*	*
2d\	su-	2d/	ſ-	2f#X/	ſu-	2a/	ſu-	4d\	-dis	.	.	4dd\	-dis	.	.
.	.	.	.	.	.	.	.	4d\	ſu-	4f#X\	ſu-	4dd\	ſu-	.	.
=112-	=112-	=112-	=112-	=112-	=112-	=112-	=112-	=112-	=112-	=112-	=112-	=112-	=112-	=112-	=112-
*M3/1	*	*M3/1	*	*M3/1	*	*M3/1	*	*M3/1	*	*M3/1	*	*M3/1	*	*M3/1	*
!	!	!LO:LB:g=original	!	!	!	!	!	!	!	!	!	!	!	!	!
0.G	-i.	0.d	-i	0.g	-i.	0.g	-i	0.g	-i.	0.g	-i	0b	-i.	0dd	E-
*	*	*	*	*	*	*	*	*	*	*	*	*custos:b	*	*custos:dd	*
.	.	.	.	.	.	.	.	.	.	.	.	1r	.	1b	-ia
=113-	=113-	=113-	=113-	=113-	=113-	=113-	=113-	=113-	=113-	=113-	=113-	=113-	=113-	=113-	=113-
*	*	*	*	*	*	*	*	*	*	*custos:b	*	*	*	*	*
!	!	!	!	!	!	!	!	!	!	!	!	!LO:LB:g=original	!	!LO:LB:g=original	!
1%3r	.	1%3r	.	1%3r	.	1%3r	.	1%3r	.	1%3r	.	1%3r	.	0dd	E-
.	.	.	.	.	.	.	.	.	.	.	.	.	.	1b	-ia
=114-	=114-	=114-	=114-	=114-	=114-	=114-	=114-	=114-	=114-	=114-	=114-	=114-	=114-	=114-	=114-
!	!	!	!	!	!	!	!	!	!	!LO:LB:g=original	!	!	!	!	!
0G	e-	0d	e-	0b	E-	0dd	e-	0g	e-	1.b	e-	1.b	e-	1%6r	.
.	.	.	.	.	.	.	.	.	.	2a\	.	2cc\	.	.	.
1G	-ia	1d	-ia	1b	-ia	1b	-ia	1g	-ia	1g	-ia	1dd	-ia	.	.
=115-	=115-	=115-	=115-	=115-	=115-	=115-	=115-	=115-	=115-	=115-	=115-	=115-	=115-	=115-	=115-
*	*	*	*	*	*	*	*	*	*ij	*lig	*ij	*	*ij	*	*
0d	e-	0d	e-	0a	e-	0dd	e-	0d	e-	1a	e-	0a	e-	.	.
.	.	.	.	.	.	.	.	.	.	1d	.	.	.	.	.
*	*	*	*	*	*	*	*	*	*	*Xlig	*	*	*	*	*
1G	-ia	1d	-ia.	1g	-ia.	1b	-ia.	1g	-ia	1d	-ia	1b	-ia	.	.
*	*	*	*	*	*	*	*	*	*Xij	*	*Xij	*	*Xij	*	*
=116-	=116-	=116-	=116-	=116-	=116-	=116-	=116-	=116-	=116-	=116-	=116-	=116-	=116-	=116-	=116-
!	!	!	!	!	!	!	!	!LO:LB:g=original	!	!	!	!	!	!	!
1%6r	.	1%6r	.	1%6r	.	1%6r	.	1%6r	.	1%6r	.	1%6r	.	0g	Vir-
.	.	.	.	.	.	.	.	.	.	.	.	.	.	1a	-go
=117-	=117-	=117-	=117-	=117-	=117-	=117-	=117-	=117-	=117-	=117-	=117-	=117-	=117-	=117-	=117-
.	.	.	.	.	.	.	.	.	.	.	.	.	.	0b	De-
.	.	.	.	.	.	.	.	.	.	.	.	.	.	1cc	-um
=118-	=118-	=118-	=118-	=118-	=118-	=118-	=118-	=118-	=118-	=118-	=118-	=118-	=118-	=118-	=118-
1%6r	.	1%6r	.	1%6r	.	1%6r	.	0g	Vir-	0g	Vir-	0g	Vir-	0b	ge-
.	.	.	.	.	.	.	.	1d	-go	1f#X	-go	1a	-go	1a	-nu-
=119-	=119-	=119-	=119-	=119-	=119-	=119-	=119-	=119-	=119-	=119-	=119-	=119-	=119-	=119-	=119-
.	.	.	.	.	.	.	.	0G	De-	0g	De-	2g/	De-	0.b	-it
*	*	*	*	*	*	*	*	*	*	*	*	*2\right	*	*	*
.	.	.	.	.	.	.	.	.	.	.	.	2a\	.	.	.
.	.	.	.	.	.	.	.	.	.	.	.	2b\	.	.	.
*	*	*	*	*	*	*	*	*	*	*	*	*2\left	*	*	*
.	.	.	.	.	.	.	.	.	.	.	.	2g/	.	.	.
.	.	.	.	.	.	.	.	1c	-um	1e	-um	1cc	-um	.	.
=120-	=120-	=120-	=120-	=120-	=120-	=120-	=120-	=120-	=120-	=120-	=120-	=120-	=120-	=120-	=120-
0G	Vir-	0d	Vir-	0g	Vir-	0dd	Vir-	0g	ge-	0g	ge-	0b	ge-	1%6r	.
1d	-go	1d	-go	1a	-go	1dd	-go	1d	-nu-	1f#X	-nu-	1a	-nu-	.	.
=121-	=121-	=121-	=121-	=121-	=121-	=121-	=121-	=121-	=121-	=121-	=121-	=121-	=121-	=121-	=121-
*custos:c	*	*	*	*	*	*	*	*	*	*	*	*	*	*	*
*	*	*lig	*	*	*	*	*	*	*	*	*	*	*	*	*
0G	De-	1d	Deu-	0b	De-	0dd	De-	0g	-it	0g	-it	0b	-it	.	.
.	.	1B	.	.	.	.	.	.	.	.	.	.	.	.	.
*	*	*Xlig	*	*	*	*	*	*	*	*	*	*	*	*	*
*	*	*	*	*	*	*custos:dd	*	*	*	*	*	*	*	*	*
!LO:LB:g=original	!	!	!	!	!	!	!	!	!	!	!	!	!	!	!
1c	-um	1e	-m	1cc	-um	1ee	-um	1r	.	1r	.	1r	.	.	.
=122-	=122-	=122-	=122-	=122-	=122-	=122-	=122-	=122-	=122-	=122-	=122-	=122-	=122-	=122-	=122-
!	!	!	!	!	!	!LO:LB:g=original	!	!	!	!	!	!	!	!	!
0g	ge-	0g	ge-	0b	ge-	0dd	ge-	1%6r	.	1%6r	.	1%6r	.	1%3r	.
1d	-nu-	1f#X	-nu-	1a	-nu-	1dd	-nu-	.	.	.	.	.	.	.	.
=123-	=123-	=123-	=123-	=123-	=123-	=123-	=123-	=123-	=123-	=123-	=123-	=123-	=123-	=123-	=123-
*	*	*	*	*custos:g	*	*	*	*	*	*	*	*	*	*	*
0.G	-it	0.g	-it	0.b	-it.	0.dd	-it	.	.	.	.	.	.	1r	.
.	.	.	.	.	.	.	.	.	.	.	.	.	.	1r	.
.	.	.	.	.	.	.	.	.	.	.	.	.	.	1dd	E-
=124-	=124-	=124-	=124-	=124-	=124-	=124-	=124-	=124-	=124-	=124-	=124-	=124-	=124-	=124-	=124-
!	!	!	!	!LO:LB:g=original	!	!	!	!	!	!	!	!	!	!	!
1%3r	.	1%3r	.	1%3r	.	1%3r	.	1%3r	.	1%3r	.	1%3r	.	1b	-ia
.	.	.	.	.	.	.	.	.	.	.	.	.	.	1dd	e-
.	.	.	.	.	.	.	.	.	.	.	.	.	.	1b	-ia
=125-	=125-	=125-	=125-	=125-	=125-	=125-	=125-	=125-	=125-	=125-	=125-	=125-	=125-	=125-	=125-
!	!	!	!	!	!	!	!	!	!	!	!	!	!	!LO:TX:a:t=6	!
1G	e-	1d	e-	1g	e-	1dd	e-	1g	e-	1g	e-	1b	e-	00.dd	e-
1G	-ia	1d	-ia	1g	-ia	1b	-ia	1g	-ia	1g	-ia	1g	ia	.	.
*	*ij	*	*ij	*	*	*	*	*	*	*	*ij	*	*	*	*
1B	e-	1B	e-	1g	e-	1dd	e-	1d	e-	1d	e-	1b	e-	.	.
=126-	=126-	=126-	=126-	=126-	=126-	=126-	=126-	=126-	=126-	=126-	=126-	=126-	=126-	=126-	=126-
1G	-ia	1d	-ia	1b	-ia	1b	-ia	1g	-ia	1d	-ia	1dd	-ia	.	.
*	*Xij	*	*Xij	*	*	*	*	*	*	*	*Xij	*	*ij	*	*
0d	e-	0d	e-	0a	e-	0dd	e-	0d	e-	0d	e-	0a	e-	.	.
=127-	=127-	=127-	=127-	=127-	=127-	=127-	=127-	=127-	=127-	=127-	=127-	=127-	=127-	=127-	=127-
0.G;	-ia	0.d;	-ia	0.g;	-ia	0.dd;	-ia	0.g;	-ia	0.d;	-ia.	0.b;	-ia	0.b;	-ia
*	*	*	*	*	*	*	*	*	*	*	*	*	*Xij	*	*
=128||-	=128||-	=128||-	=128||-	=128||-	=128||-	=128||-	=128||-	=128||-	=128||-	=128||-	=128||-	=128||-	=128||-	=128||-	=128||-
*M2/1	*	*M2/1	*	*M2/1	*	*M2/1	*	*M2/1	*	*M2/1	*	*M2/1	*	*M2/1	*
*met(C|)	*	*met(C|)	*	*met(C|)	*	*	*	*met(C|)	*	*met(C|)	*	*	*	*met(C|)	*
!LO:LB:g=original	!	!LO:LB:g=original	!	!	!	!	!	!LO:LB:g=original	!	!LO:LB:g=original	!	!LO:LB:g=original	!	!LO:PB:g=original	!
!	!	!	!	!	!	!LO:TX:t=P:problem=brak zmiany metrum	!	!	!	!	!	!LO:TX:t=P:problem=brak zmiany metrum	!	!	!
00r	.	00r	.	00r	.	00r	.	0r	.	0r	.	1r	.	2g/	E
.	.	.	.	.	.	.	.	.	.	.	.	.	.	4b/	ſu-
.	.	.	.	.	.	.	.	.	.	.	.	.	.	4b/	-ri-
.	.	.	.	.	.	.	.	.	.	.	.	2r	.	2g/	-en-
.	.	.	.	.	.	.	.	.	.	.	.	2g/	E-	4b/	-tes
.	.	.	.	.	.	.	.	.	.	.	.	.	.	4b/	im-
=129-	=129-	=129-	=129-	=129-	=129-	=129-	=129-	=129-	=129-	=129-	=129-	=129-	=129-	=129-	=129-
.	.	.	.	.	.	.	.	2G/	E-	2d/	E-	4b\	-su-	1dd	-ple-
.	.	.	.	.	.	.	.	.	.	.	.	4b\	-ri-	.	.
.	.	.	.	.	.	.	.	4B/	-ſu-	4d/	-ſu-	2g/	-en-	.	.
.	.	.	.	.	.	.	.	4B/	-ri-	4d/	-ri-	.	.	.	.
.	.	.	.	.	.	.	.	2G/	-en-	2d/	-en-	2.b\	-tes	2b/	-vit
.	.	.	.	.	.	.	.	4B/	-tes	4d/	-tes	.	.	2dd\	im-
.	.	.	.	.	.	.	.	4B/	im-	4g\	im-	4dd\	im-	.	.
=130-	=130-	=130-	=130-	=130-	=130-	=130-	=130-	=130-	=130-	=130-	=130-	=130-	=130-	=130-	=130-
0r	.	0r	.	0r	.	1r	.	2c/	-ple-	2e\	-ple-	2ee\	-ple-	2cc\	-ple-
.	.	.	.	.	.	.	.	2d\	-vit	2f#X\	-vit	2dd\	-vit	2a/	-vit
.	.	.	.	.	.	2g/	E-	1G	bo-	1g	Bo-	1dd	bo-	2b/	bo-
.	.	.	.	.	.	4b/	-ſu-	.	.	.	.	.	.	2g/	-nis
.	.	.	.	.	.	4b/	-ri-	.	.	.	.	.	.	.	.
=131-	=131-	=131-	=131-	=131-	=131-	=131-	=131-	=131-	=131-	=131-	=131-	=131-	=131-	=131-	=131-
1r	.	1r	.	2r	.	2g/	-en-	1G	-nis	1g	-nis	1b	-nis	00r	.
.	.	.	.	2g/	E-	4b/	-tes	.	.	.	.	.	.	.	.
.	.	.	.	.	.	4b/	im-	.	.	.	.	.	.	.	.
2G/	E-	2d/	E-	4b\	-ſu-	1dd	-ple-	0r	.	0r	.	1r	.	.	.
.	.	.	.	4b\	-ri-	.	.	.	.	.	.	.	.	.	.
4B/	-si-	4d/	-ſu-	2g/	-en-	.	.	.	.	.	.	.	.	.	.
4B/	-ri-	4d/	-ri-	.	.	.	.	.	.	.	.	.	.	.	.
=132-	=132-	=132-	=132-	=132-	=132-	=132-	=132-	=132-	=132-	=132-	=132-	=132-	=132-	=132-	=132-
2G/	-en-	2d/	-en-	2.b\	-tes	2b/	-vit	.	.	.	.	0r	.	.	.
4B/	-tes	4d/	-tes	.	.	2dd\	im-	.	.	.	.	.	.	.	.
4B/	im-	4g\	im-	4dd\	im-	.	.	.	.	.	.	.	.	.	.
2c/	-ple-	2e\	-ple-	2ee\	-ple-	2cc\	-ple-	1r	.	1r	.	.	.	.	.
2d/	-vit	2f#X\	-vit	2dd\	-vit	2a/	-vit	.	.	.	.	.	.	.	.
=133-	=133-	=133-	=133-	=133-	=133-	=133-	=133-	=133-	=133-	=133-	=133-	=133-	=133-	=133-	=133-
2G/	bo-	2g\	bo-	2dd\	bo-	2b/	bo-	2r	.	2r	.	2r	.	00r	.
2G/	-nis	2g\	-nis	2b\	-nis	2g/	-nis	2g\	im-	2d/	im-	2b\	im-	.	.
1r	.	1r	.	1r	.	1r	.	2f\	-ple-	2d/	-ple-	2a\	-ple-	.	.
.	.	.	.	.	.	.	.	2e\	-vit	2g\	-vit	2g\	-vit	.	.
=134-	=134-	=134-	=134-	=134-	=134-	=134-	=134-	=134-	=134-	=134-	=134-	=134-	=134-	=134-	=134-
2r	.	2r	.	2r	.	2r	.	2d\	bo-	2f#X\	bo-	2a\	bo-	.	.
!	!	!LO:SIC:v:s=4f#\	!	!	!	!	!	!	!	!	!	!	!	!	!
2d\	im-	4fny\	im-	2a\	im-	2dd\	im-	2d\	-nis	2f#\	-nis	2a\	-nis	.	.
.	.	4g\	-ple-	.	.	.	.	.	.	.	.	.	.	.	.
2A/	-ple-	2a\	-vit	2cc\	-ple-	2ee\	-ple-	2r	.	1r	.	2r	.	.	.
*	*	*	*	*	*	*	*	*	*	*	*	*	*ij	*	*
!	!	!	!	!	!	!	!	!LO:SIC:v:s=2.f#\	!	!	!	!	!	!	!
2B/	-vit	1g\	bo-	2b\	-vit	2dd\	-vit	2.g\	im-	.	.	2g/	im-	.	.
=135-	=135-	=135-	=135-	=135-	=135-	=135-	=135-	=135-	=135-	=135-	=135-	=135-	=135-	=135-	=135-
(>2c/	bo-	.	.	1a	bo-	4cc\	bo-	.	.	2r	.	4a\	-ple-	1r	.
!	!	!	!	!	!	!	!	!LO:SIC:v:s=8f#\L	!	!	!	!	!	!	!
.	.	.	.	.	.	4b\	.	8f\L	-ple-	.	.	4a\	-vit	.	.
.	.	.	.	.	.	.	.	8e\J	-vit	.	.	.	.	.	.
!	!	!LO:TX:a:t=P:problem=# above	!	!	!	!	!	!	!	!	!	!	!	!	!
2d/)	.	2f#X\	.	.	.	2a/	.	2d\	bo-	2d/	bo-	2a\	bo-	.	.
*	*	*	*	*	*	*custos:dd	*	*	*	*custos:f#	*	*	*	*	*
!	!	!	!	!	!	!	!	!	!	!LO:TX:t=P:problem=niewyraźne źródło	!	!	!	!	!
1G	-nis	1g	-nis	1g	-nis.	1b	-nis	1g	-nis	1dyy	-nis	1d	-nis	2dd\	et
*	*	*	*	*	*	*	*	*	*	*	*	*	*Xij	*	*
.	.	.	.	.	.	.	.	.	.	.	.	.	.	4.b/	di-
.	.	.	.	.	.	.	.	.	.	.	.	.	.	8b/	-vi-
=136-	=136-	=136-	=136-	=136-	=136-	=136-	=136-	=136-	=136-	=136-	=136-	=136-	=136-	=136-	=136-
*	*	*	*	*custos:a	*	*	*	*	*	*	*	*	*	*	*
!	!	!	!	!	!	!LO:LB:g=original	!	!	!	!	!	!	!	!	!
0r	.	0r	.	0r	.	0r	.	0r	.	2ryy	.	0r	.	2g/	-tes
!	!	!	!	!	!	!	!	!	!	!LO:LB:g=original	!	!	!	!	!
.	.	.	.	.	.	.	.	.	.	2f#X\	et	.	.	2a/	di-
.	.	.	.	.	.	.	.	.	.	4.g\	di-	.	.	2b/	-miſ-
.	.	.	.	.	.	.	.	.	.	8g\	-vi-	.	.	.	.
.	.	.	.	.	.	.	.	.	.	4g\	-tes	.	.	4a/	-sit
.	.	.	.	.	.	.	.	.	.	4d/	et	.	.	4cc\	i-
=137-	=137-	=137-	=137-	=137-	=137-	=137-	=137-	=137-	=137-	=137-	=137-	=137-	=137-	=137-	=137-
!	!	!	!	!LO:PB:g=original	!	!	!	!	!	!	!	!	!	!	!
1r	.	1r	.	1r	.	1r	.	2r	.	4.d/	di-	2r	.	(>2b/	-na-
.	.	.	.	.	.	.	.	.	.	8d/	-vi-	.	.	.	.
*	*	*	*	*	*	*	*	*custos:g	*	*	*	*	*	*	*
.	.	.	.	.	.	.	.	2d\	et	4d/	-tes	2dd\	et	2a/)	.
*	*	*	*	*	*	*	*	*	*	*	*ij	*	*	*	*
.	.	.	.	.	.	.	.	.	.	4f#X\	et	.	.	.	.
!	!	!	!	!	!	!	!	!LO:LB:g=original	!	!	!	!	!	!	!
2r	.	2r	.	2r	.	2r	.	4.g\	di-	4.a\	di-	4.b\	di-	2g/	-nes
*	*	*	*	*	*	*	*	*	*	*	*	*custos:a	*	*	*
.	.	.	.	.	.	.	.	8g\	-vi-	8g\	-vi-	8b\	-vi-	.	.
!	!	!	!	!	!	!	!	!	!	!	!	!LO:LB:g=original	!	!	!
2d\	et	2f#X\	et	2a\	et	2dd\	et	4d\	-tes	2f#X\	-tes	4a\	-tes	2r	.
*	*	*	*	*	*	*	*	*	*ij	*	*Xij	*	*ij	*	*
.	.	.	.	.	.	.	.	4d\	et	.	.	4a\	et	.	.
=138-	=138-	=138-	=138-	=138-	=138-	=138-	=138-	=138-	=138-	=138-	=138-	=138-	=138-	=138-	=138-
4.g\	di-	4.g\	di-	4.g\	di-	4.b/	di-	4.G/	di-	4g\	di-	4.b\	di-	00r	.
.	.	.	.	.	.	.	.	.	.	4g\	-mi-	.	.	.	.
8g\	-vi-	8g\	-vi-	8g\	-vi-	8b/	-vi-	8G/	-vi-	.	.	8b\	-vi-	.	.
*custos:d	*	*	*	*	*	*	*	*	*	*	*	*	*	*	*
!	!	!LO:LB:g=original	!	!	!	!	!	!	!	!	!	!	!	!	!
4d\	-tes	4f#X\	-tes	4a\	-tes	4a/	-tes	4d\	-tes	4e\	-ſit	4dd\	-tes	.	.
*	*	*	*	*	*	*	*	*	*Xij	*	*	*	*Xij	*	*
!LO:PB:g=original	!	!	!	!	!	!	!	!	!	!	!	!	!	!	!
4d\	et	4d/	et	4dd\	et	4a/	et	4d\	et	4a\	i-	4dd\	et	.	.
4.G/	di-	4.d/	di-	4dd\	di-	4.b/	di-	4.g\	Di-	2.g\	-na-	4.b\	di-	.	.
.	.	.	.	4g/	-vi-	.	.	.	.	.	.	.	.	.	.
8G/	-vi-	8d/	-vi-	.	.	8b/	-vi-	8g\	-vi-	.	.	8b\	-vi-	.	.
2d\	-tes	2d/	-tes	2a\	-tes	2dd\	-tes	2d\	-tes	.	.	2a\	-tes	.	.
.	.	.	.	.	.	.	.	.	.	4f#X\	.	.	.	.	.
=139-	=139-	=139-	=139-	=139-	=139-	=139-	=139-	=139-	=139-	=139-	=139-	=139-	=139-	=139-	=139-
0r	.	0r	.	0r	.	0r	.	4G/	Di-	2g\	-nes	4b\	di-	.	.
.	.	.	.	.	.	.	.	4G/	-mi-	.	.	4b\	-mi-	.	.
.	.	.	.	.	.	.	.	4d\	-sit	2r	.	4a\	-ſit	.	.
.	.	.	.	.	.	.	.	4A/	in	.	.	4cc\	i-	.	.
.	.	.	.	.	.	.	.	4.B/	a-	1r	.	2b\	-na-	.	.
.	.	.	.	.	.	.	.	8c/	.	.	.	.	.	.	.
.	.	.	.	.	.	.	.	2d\	.	.	.	2a\	.	.	.
=140-	=140-	=140-	=140-	=140-	=140-	=140-	=140-	=140-	=140-	=140-	=140-	=140-	=140-	=140-	=140-
*	*	*	*	*	*	*	*	*	*	*	*	*	*	*custos:g	*
4G/	Di-	4g\	di-	4b\	di-	4dd\	di-	2G/	-nes	2r	.	2g/	-nes	0r	.
4G/	-mi-	4g\	-mi-	4b\	-mi-	4dd\	-mi-	.	.	.	.	.	.	.	.
4d\	-sit	4fny\	-ſit	4a\	-ſit	4ff\	-ſit	2r	.	4d/	E-	2r	.	.	.
4A/	i-	4a\	i-	4cc\	i-	4ee\	i-	.	.	8d/	-ſu-	.	.	.	.
.	.	.	.	.	.	.	.	.	.	8d/	-ri-	.	.	.	.
4.B/	-na-	2.g\	-na-	(2b\	-na-	1dd	-na-	0r	.	2g\	-en-	0r	.	.	.
8c/	.	.	.	.	.	.	.	.	.	.	.	.	.	.	.
2d\	.	.	.	2a\)	.	.	.	.	.	4g\	-tes	.	.	.	.
*	*	*	*	*	*	*	*	*	*	*custos:e	*	*	*	*	*
!	!	!LO:TX:a:t=P:problem=# above	!	!	!	!	!	!	!	!	!	!	!	!	!
.	.	4f#X\	.	.	.	.	.	.	.	4d/	im-	.	.	.	.
=141-	=141-	=141-	=141-	=141-	=141-	=141-	=141-	=141-	=141-	=141-	=141-	=141-	=141-	=141-	=141-
!	!	!	!	!	!	!	!	!	!	!LO:PB:g=original	!	!	!	!LO:LB:g=original	!
1G	-nes	1g	-nes	1g	-nes	1dd	-nes	.	.	4e\	-ple-	.	.	4g/	E-
.	.	.	.	.	.	.	.	.	.	4e\	-vit	.	.	8b/	-su-
.	.	.	.	.	.	.	.	.	.	.	.	.	.	8b/	-ri-
.	.	.	.	.	.	.	.	.	.	2f#X\	bo-	.	.	4g/	-en-
.	.	.	.	.	.	.	.	.	.	.	.	.	.	4b/	-tes
00r	.	00r	.	00r	.	0r	.	2r	.	1g	-nis	4g/	E-	1dd	im-
.	.	.	.	.	.	.	.	.	.	.	.	8b\	-su-	.	.
.	.	.	.	.	.	.	.	.	.	.	.	8b\	-ri-	.	.
.	.	.	.	.	.	.	.	4G/	E-	.	.	4g/	-en-	.	.
.	.	.	.	.	.	.	.	8B/	-su-	.	.	4b\	-tes	.	.
.	.	.	.	.	.	.	.	8B/	-ri-	.	.	.	.	.	.
=142-	=142-	=142-	=142-	=142-	=142-	=142-	=142-	=142-	=142-	=142-	=142-	=142-	=142-	=142-	=142-
.	.	.	.	.	.	.	.	2G/	-en-	00r	.	2dd\	im-	2b/	-ple-
.	.	.	.	.	.	.	.	4B/	-tes	.	.	2b\	-ple-	2dd\	-vit
.	.	.	.	.	.	.	.	4B/	im-	.	.	.	.	.	.
.	.	.	.	.	.	1r	.	4c/	-ple-	.	.	2ee\	-vit	4.cc\	bo-
.	.	.	.	.	.	.	.	4c/	-vit	.	.	.	.	.	.
.	.	.	.	.	.	.	.	.	.	.	.	.	.	8b/	.
.	.	.	.	.	.	.	.	2d\	bp-	.	.	1dd\	bo-	2a/	.
=143-	=143-	=143-	=143-	=143-	=143-	=143-	=143-	=143-	=143-	=143-	=143-	=143-	=143-	=143-	=143-
.	.	.	.	.	.	4g/	E-	1G	-nis.	.	.	.	.	1b	-nis
.	.	.	.	.	.	8b/	-ſu-	.	.	.	.	.	.	.	.
.	.	.	.	.	.	8b/	-ri-	.	.	.	.	.	.	.	.
.	.	.	.	.	.	4g/	-en-	.	.	.	.	2b\	-nis	.	.
.	.	.	.	.	.	4b/	-tes	.	.	.	.	.	.	.	.
2r	.	2r	.	4g\	e-	1dd	im-	00r	.	.	.	00r	.	0r	.
.	.	.	.	8b\	-ſu-	.	.	.	.	.	.	.	.	.	.
.	.	.	.	8b\	-ri-	.	.	.	.	.	.	.	.	.	.
4G/	E-	4d/	E-	2g\	-en-	.	.	.	.	.	.	.	.	.	.
8B/	-ſu-	8d/	-ſu-	.	.	.	.	.	.	.	.	.	.	.	.
8B/	-ri-	8d/	-ri-	.	.	.	.	.	.	.	.	.	.	.	.
=144-	=144-	=144-	=144-	=144-	=144-	=144-	=144-	=144-	=144-	=144-	=144-	=144-	=144-	=144-	=144-
2G/	-en-	2g\	-en-	4b\	-tes	2b\	-ple-	.	.	0r	.	.	.	.	.
.	.	.	.	4dd\	im-	.	.	.	.	.	.	.	.	.	.
4B/	-tes	4g\	-tes	4dd\	-ple-	2dd\	-vit	.	.	.	.	.	.	.	.
4B/	im-	4d/	im-	4b\	-vit	.	.	.	.	.	.	.	.	.	.
4c/	-ple-	4e/	-ple-	(2ee\	bo-	4.cc\	bo-	.	.	.	.	.	.	1r	.
4c/	-vit	4e/	-vit	.	.	.	.	.	.	.	.	.	.	.	.
.	.	.	.	.	.	8b/	.	.	.	.	.	.	.	.	.
2d\	bo-	2f#X\	bo-	2dd\)	.	2a/	.	.	.	.	.	.	.	.	.
=145-	=145-	=145-	=145-	=145-	=145-	=145-	=145-	=145-	=145-	=145-	=145-	=145-	=145-	=145-	=145-
2G/	-nis	2g\	-nis	2b\	-nis	2b/	-nis	.	.	1r	.	.	.	4dd\	et
.	.	.	.	.	.	.	.	.	.	.	.	.	.	4b/	di-
2r	.	2r	.	2r	.	1r	.	.	.	.	.	.	.	4g/	-vi-
.	.	.	.	.	.	.	.	.	.	.	.	.	.	4a/	-tes
00r	.	0r	.	00r	.	.	.	0r	.	4g\	et	0r	.	4b/	di-
.	.	.	.	.	.	.	.	.	.	4g\	di-	.	.	4b/	-mi-
.	.	.	.	.	.	00r	.	.	.	4g\	-vi-	.	.	4a/	-ſit
.	.	.	.	.	.	.	.	.	.	4f#X\	-tes	.	.	4cc/	i-
=146-	=146-	=146-	=146-	=146-	=146-	=146-	=146-	=146-	=146-	=146-	=146-	=146-	=146-	=146-	=146-
.	.	.	.	.	.	.	.	.	.	4g\	di-	.	.	(>2b/	-na-
.	.	.	.	.	.	.	.	.	.	4g\	-mi-	.	.	.	.
.	.	.	.	.	.	.	.	.	.	4e\	-ſit	.	.	2a/)	.
.	.	.	.	.	.	.	.	.	.	2a\	i-	.	.	.	.
.	.	0r	.	.	.	.	.	4g\	et	.	.	4dd\	et	2g/	-nes
*	*	*	*	*	*	*	*	*custos:e	*	*	*	*	*	*	*
.	.	.	.	.	.	.	.	4g\	di-	2g\	-na-	4b\	di-	.	.
!	!	!	!	!	!	!	!	!LO:LB:g=original	!	!	!	!	!	!	!
.	.	.	.	.	.	.	.	4e\	-vi-	.	.	4g/	-vi-	2r	.
*	*	*	*	*	*	*	*	*	*	*	*	*custos:b	*	*	*
.	.	.	.	.	.	.	.	4d/	-tes	4f#X\	.	4a\	-tes	.	.
=147-	=147-	=147-	=147-	=147-	=147-	=147-	=147-	=147-	=147-	=147-	=147-	=147-	=147-	=147-	=147-
!	!	!	!	!	!	!	!	!	!	!	!	!LO:PB:g=original	!	!	!
.	.	.	.	.	.	.	.	4G/	di-	2g\	-nes	4b\	di-	00r	.
.	.	.	.	.	.	.	.	4G/	-mi-	.	.	4b\	-mi-	.	.
.	.	.	.	.	.	.	.	4A/	-sit	2r	.	4a\	-ſit	.	.
.	.	.	.	.	.	.	.	4A/	i-	.	.	4cc\	i-	.	.
1r	.	1r	.	1r	.	.	.	4.B/	-na-	00r	.	(2b\	-na-	.	.
.	.	.	.	.	.	.	.	8c/	.	.	.	.	.	.	.
.	.	.	.	.	.	2r	.	2d\	.	.	.	2a\)	.	.	.
=148-	=148-	=148-	=148-	=148-	=148-	=148-	=148-	=148-	=148-	=148-	=148-	=148-	=148-	=148-	=148-
4g\	et	4g\	et	4b\	et	4dd\	et	2G/	-nes	.	.	2g/	-nes	.	.
*	*	*	*	*	*	*custos:g	*	*	*	*	*	*	*	*	*
4g\	di-	4g\	di-	4b\	di-	4b/	di-	.	.	.	.	.	.	.	.
!	!	!	!	!	!	!LO:LB:g=original	!	!	!	!	!	!	!	!	!
4e\	-vi-	4g\	-vi-	4b\	-vi-	4g/	-vi-	2r	.	.	.	2r	.	.	.
*custos:G	*	*	*	*	*	*	*	*	*	*	*	*	*	*	*
4d\	-tes	4f#X\	-tes	4dd\	-tes	4a/	-tes	.	.	.	.	.	.	.	.
*	*	*	*	*custos:b	*	*	*	*	*	*	*	*	*	*	*
!LO:LB:g=original	!	!	!	!	!	!	!	!	!	!	!	!	!	!	!
4G/	di-	4g\	di-	4dd\	di-	4b/	di-	0r	.	.	.	0r	.	.	.
*	*	*custos:f#	*	*	*	*	*	*	*	*	*	*	*	*	*
!	!	!	!	!LO:LB:g=original	!	!	!	!	!	!	!	!	!	!	!
4G/	-mi-	4g\	-mi-	4b\	-mi-	4b/	-mi-	.	.	.	.	.	.	.	.
!	!	!LO:LB:g=original	!	!	!	!	!	!	!	!	!	!	!	!	!
4d\	-ſit	4f#\	-ſit	4dd\	-ſit	4a/	-sit	.	.	.	.	.	.	.	.
4A/	i-	4a\	i-	4ee\	i-	4cc\	i-	.	.	.	.	.	.	.	.
=149-	=149-	=149-	=149-	=149-	=149-	=149-	=149-	=149-	=149-	=149-	=149-	=149-	=149-	=149-	=149-
(>4.B/	-na-	2.g\	-na-	1dd	-na-	(>2b/	-na-	.	.	.	.	.	.	00r	.
8c/)	.	.	.	.	.	.	.	.	.	.	.	.	.	.	.
2d\	.	.	.	.	.	2a/)	.	.	.	.	.	.	.	.	.
.	.	4f#X\	.	.	.	.	.	.	.	.	.	.	.	.	.
!	!	!	!	!	!	!	!	!	!	!LO:TX:t=P:problem=brakująca pauza 0r	!	!	!	!	!
2G/	-nes	2g\	-nes	2b\	-nes	2g/	-nes	1r	.	0ryy	.	1r	.	.	.
2B/	di-	1g\	di-	2b\	di-	2gg\	di-	.	.	.	.	.	.	.	.
=150-	=150-	=150-	=150-	=150-	=150-	=150-	=150-	=150-	=150-	=150-	=150-	=150-	=150-	=150-	=150-
2c/	-mi-	.	.	2g/	-mi-	2ee\	-mi-	4g\	di-	.	.	4g/	di-	.	.
.	.	.	.	.	.	.	.	4c/	-mi-	.	.	4g/	-mi-	.	.
4c/	-ſit	2e/	-mi-	2.cc\	-sit	4ee\	-ſit	4g\	-sit	.	.	4g/	-ſit	.	.
4c/	i-	.	.	.	.	4ee\	i-	4g\	i-	.	.	4g/	i-	.	.
1d	-na-	4f#X\	-sit	.	.	1dd	-na-	1d	-na-	2d/	i-	(2dd\	-na-	.	.
.	.	2g\	i-	4b\	i-	.	.	.	.	.	.	.	.	.	.
.	.	.	.	2a\	-na-	.	.	.	.	2d/	-na-	2a\)	.	.	.
!	!	!LO:TX:a:t=P:problem=# above	!	!	!	!	!	!	!	!	!	!	!	!	!
.	.	4f#X\	-na-	.	.	.	.	.	.	.	.	.	.	.	.
=151-	=151-	=151-	=151-	=151-	=151-	=151-	=151-	=151-	=151-	=151-	=151-	=151-	=151-	=151-	=151-
*M3/1	*	*M3/1	*	*M3/1	*	*M3/1	*	*M3/1	*	*M3/1	*	*M3/1	*	*M3/1	*
0.G	-nes	0.g	-nes	0.g	-nes	0.dd	-nes	0.g	-nes	0.d	-nes	0b	-nes	0dd	E-
.	.	.	.	.	.	.	.	.	.	.	.	1r	.	1b	-ia
=152-	=152-	=152-	=152-	=152-	=152-	=152-	=152-	=152-	=152-	=152-	=152-	=152-	=152-	=152-	=152-
1%3r	.	1%3r	.	1%3r	.	1%3r	.	1%3r	.	1%3r	.	1%3r	.	0dd	e-
.	.	.	.	.	.	.	.	.	.	.	.	.	.	1b	-ia
=153-	=153-	=153-	=153-	=153-	=153-	=153-	=153-	=153-	=153-	=153-	=153-	=153-	=153-	=153-	=153-
0G	e-	0d	e-	0b	e-	0dd	e-	0g	e-	0g	e-	1.b	e-	1%6r	.
.	.	.	.	.	.	.	.	.	.	.	.	2cc\	.	.	.
1G	-ia	1d	-ia	1b	-ia	1b	-ia	1g	-ia	1g	-ia	1dd	-ia	.	.
=154-	=154-	=154-	=154-	=154-	=154-	=154-	=154-	=154-	=154-	=154-	=154-	=154-	=154-	=154-	=154-
*	*	*	*	*	*	*	*	*	*ij	*lig	*	*	*	*	*
0d	e-	0d	e-	0a	e-	0dd	e-	0d	e-	1a	e-	0a	e-	.	.
.	.	.	.	.	.	.	.	.	.	1d	.	.	.	.	.
*	*	*	*	*	*	*	*	*	*	*Xlig	*	*	*	*	*
1G	-ia	1d	-ia	1g	-ia	1b	-ia	1g	-ia	1d	-ia	1b	-ia	.	.
*	*	*	*	*	*	*	*	*	*Xij	*	*	*	*	*	*
=155-	=155-	=155-	=155-	=155-	=155-	=155-	=155-	=155-	=155-	=155-	=155-	=155-	=155-	=155-	=155-
1%6r	.	1%6r	.	1%6r	.	1%6r	.	1%6r	.	1%6r	.	1%6r	.	0g	Vir-
.	.	.	.	.	.	.	.	.	.	.	.	.	.	1a	-go
=156-	=156-	=156-	=156-	=156-	=156-	=156-	=156-	=156-	=156-	=156-	=156-	=156-	=156-	=156-	=156-
*	*	*	*	*	*	*	*	*	*	*	*	*	*	*custos:cc	*
.	.	.	.	.	.	.	.	.	.	.	.	.	.	0b	De-
!	!	!	!	!	!	!	!	!	!	!	!	!	!	!LO:LB:g=original	!
.	.	.	.	.	.	.	.	.	.	.	.	.	.	1cc	-um
=157-	=157-	=157-	=157-	=157-	=157-	=157-	=157-	=157-	=157-	=157-	=157-	=157-	=157-	=157-	=157-
1%6r	.	1%6r	.	1%6r	.	1%6r	.	0g	Vir-	0g	Vir-	0g	Vir-	0b	ge-
.	.	.	.	.	.	.	.	1d	-go	1f#X	-go	1a	-go	1a	-nu-
=158-	=158-	=158-	=158-	=158-	=158-	=158-	=158-	=158-	=158-	=158-	=158-	=158-	=158-	=158-	=158-
*	*	*	*	*	*	*	*	*	*	*custos:e	*	*	*	*	*
.	.	.	.	.	.	.	.	0G	De-	0g	De-	2g\	De-	0.b	-ut
.	.	.	.	.	.	.	.	.	.	.	.	2a\	.	.	.
.	.	.	.	.	.	.	.	.	.	.	.	2b\	.	.	.
.	.	.	.	.	.	.	.	.	.	.	.	2g\	.	.	.
!	!	!	!	!	!	!	!	!	!	!LO:LB:g=original	!	!	!	!	!
.	.	.	.	.	.	.	.	1c	-um	1e	-um	1cc	-um	.	.
=159-	=159-	=159-	=159-	=159-	=159-	=159-	=159-	=159-	=159-	=159-	=159-	=159-	=159-	=159-	=159-
!	!	!	!	!	!	!	!	!LO:LB:g=original	!	!	!	!	!	!	!
0G	Vir-	0d	Vir-	0g	Vir-	0dd	Vir-	0g	ge-	0g	ge-	0b	ge-	1%6r	.
*	*	*	*	*	*	*	*	*	*	*	*	*custos:b	*	*	*
1d	-go	1d	-go	1a	-go	1dd	-go	1d	-nu-	1f#X	-nu-	1a	-nu-	.	.
=160-	=160-	=160-	=160-	=160-	=160-	=160-	=160-	=160-	=160-	=160-	=160-	=160-	=160-	=160-	=160-
*	*	*lig	*	*	*	*	*	*	*	*	*	*	*	*	*
!	!	!	!	!	!	!	!	!	!	!	!	!LO:LB:g=original	!	!	!
0G	De-	1d	Deu-	0b	De-	0dd	De-	0.g	-it	0.g	-it	0.b	-it	.	.
.	.	1B	.	.	.	.	.	.	.	.	.	.	.	.	.
*	*	*Xlig	*	*	*	*	*	*	*	*	*	*	*	*	*
1c	-um	1e	-m	1cc	-um	1ee	-um	.	.	.	.	.	.	.	.
=161-	=161-	=161-	=161-	=161-	=161-	=161-	=161-	=161-	=161-	=161-	=161-	=161-	=161-	=161-	=161-
0g	ge-	0g	ge-	0b	ge-	0dd	ge-	1%6r	.	1%6r	.	1%6r	.	1%3r	.
1d	-nu-	1f#X	-nu-	1a	-nu-	1dd	-nu-	.	.	.	.	.	.	.	.
=162-	=162-	=162-	=162-	=162-	=162-	=162-	=162-	=162-	=162-	=162-	=162-	=162-	=162-	=162-	=162-
0.G	-it	0.g	-it	0.b	-it	0.dd	-it	.	.	.	.	.	.	1r	.
.	.	.	.	.	.	.	.	.	.	.	.	.	.	1r	.
.	.	.	.	.	.	.	.	.	.	.	.	.	.	1dd	e-
=163-	=163-	=163-	=163-	=163-	=163-	=163-	=163-	=163-	=163-	=163-	=163-	=163-	=163-	=163-	=163-
*custos:G	*	*	*	*	*	*	*	*	*	*	*	*	*	*	*
1%3r	.	1%3r	.	1%3r	.	1%3r	.	1%3r	.	1%3r	.	1%3r	.	1b	-ia
.	.	.	.	.	.	.	.	.	.	.	.	.	.	1dd	e-
.	.	.	.	.	.	.	.	.	.	.	.	.	.	1b	-ia
=164-	=164-	=164-	=164-	=164-	=164-	=164-	=164-	=164-	=164-	=164-	=164-	=164-	=164-	=164-	=164-
!LO:LB:g=original	!	!	!	!	!	!	!	!	!	!	!	!	!	!LO:TX:a:t=6	!
1G	e-	1d	e-	1g	e-	1dd	e-	1g	e-	1g	e-	1b	e-	00.dd	E-
1G	-ia	1d	-ia	1g	-ia	1b	-ia	1g	-ia	1g	-ia	1g	-ia	.	.
*	*	*	*ij	*	*	*	*	*	*	*	*ij	*	*ij	*	*
1B	e-	1B	e-	1g	e-	1dd	e-	1d	e-	1d	e-	1b	e-	.	.
=165-	=165-	=165-	=165-	=165-	=165-	=165-	=165-	=165-	=165-	=165-	=165-	=165-	=165-	=165-	=165-
1G	-ia	1d	-ia	1b	-ia	1b	-ia	1g	-ia	1d	-ia	1dd	-ia	.	.
*	*	*	*Xij	*	*	*	*	*	*	*	*Xij	*	*Xij	*	*
0d	e-	0d	e-	0a	e-	0dd	e-	0d	e-	0d	e-	0a	e-	.	.
=166-	=166-	=166-	=166-	=166-	=166-	=166-	=166-	=166-	=166-	=166-	=166-	=166-	=166-	=166-	=166-
0.G;	-ia	0.d;	-ia	0.g;	-ia	0.dd;	-ia	0.g;	-ia	0.d;	-ia	0.b;	-ia.	0.b;	-ia.
=167||-	=167||-	=167||-	=167||-	=167||-	=167||-	=167||-	=167||-	=167||-	=167||-	=167||-	=167||-	=167||-	=167||-	=167||-	=167||-
*M2/1	*	*M2/1	*	*M2/1	*	*M2/1	*	*M2/1	*	*M2/1	*	*M2/1	*	*M2/1	*
*	*	*met(C|)	*	*met(C|)	*	*met(C|)	*	*met(C|)	*	*met(C|)	*	*met(C|)	*	*met(C|)	*
!LO:TX:t=P:problem=brak zmiany metrum	!	!	!	!	!	!	!	!	!	!	!	!	!	!	!
!LO:LB:g=original	!	!LO:LB:g=original	!	!LO:LB:g=original	!	!LO:LB:g=original	!	!LO:PB:g=original	!	!LO:LB:g=original	!	!	!	!LO:LB:g=original	!
0r	.	0r	.	0r	.	0r	.	0r	.	0r	.	0r	.	2g/	Si-
.	.	.	.	.	.	.	.	.	.	.	.	.	.	4a/	-cut
.	.	.	.	.	.	.	.	.	.	.	.	.	.	4a/	lo-
.	.	.	.	.	.	.	.	.	.	.	.	.	.	4b/	-cu-
.	.	.	.	.	.	.	.	.	.	.	.	.	.	4b/	-tus
.	.	.	.	.	.	.	.	.	.	.	.	.	.	2g/	est
=168-	=168-	=168-	=168-	=168-	=168-	=168-	=168-	=168-	=168-	=168-	=168-	=168-	=168-	=168-	=168-
2G/	Si-	2d/	Si-	2b\	Si-	2b/	Si-	2g\	Si-	2g\	Si-	2g/	Si-	0r	.
4d\	-cut	4d/	-cut	4a\	-cut	4dd\	-cut	4d\	-cut	4f#X\	-cut	4a\	-cut	.	.
4d\	lo-	4d/	lo-	4a\	lo-	4dd\	lo-	4d\	lo-	4f#\	lo-	4a\	lo-	.	.
4G/	-cu-	4d/	-cu-	4g\	-cu-	4dd\	-cu-	4g\	-cu-	4g\	-cu-	4b\	-cu-	.	.
4G/	-tus	4d/	-tus	4g\	-tus	4b/	-tus	4g\	-tus	4g\	-tus	4b\	-tus	.	.
2c/	est	2e/	est	2g\	est	2ee\	est	2c/	est	2g\	est	2g/	est	.	.
=169-	=169-	=169-	=169-	=169-	=169-	=169-	=169-	=169-	=169-	=169-	=169-	=169-	=169-	=169-	=169-
0r	.	0r	.	0r	.	0r	.	0r	.	0r	.	0r	.	2dd\	ad
.	.	.	.	.	.	.	.	.	.	.	.	.	.	4ee\	Pa-
.	.	.	.	.	.	.	.	.	.	.	.	.	.	4ee\	-tres
.	.	.	.	.	.	.	.	.	.	.	.	.	.	4.dd\	noſ-
.	.	.	.	.	.	.	.	.	.	.	.	.	.	8cc\	.
.	.	.	.	.	.	.	.	.	.	.	.	.	.	2dd\	-tros
=170-	=170-	=170-	=170-	=170-	=170-	=170-	=170-	=170-	=170-	=170-	=170-	=170-	=170-	=170-	=170-
2G/	ad	2g\	ad	2b\	ad	2dd\	ad	2g\	ad	2g\	ad	2g/	ad	0r	.
4c/	Pa-	4c/	Pa-	4cc\	Pa-	4ee\	Pa-	4g\	Pa-	4g\	Pa-	4e/	Pa-	.	.
4d/	-tres	4fny\	-tres	4a\	-tres	4dd\	-tres	4d\	-tres	4fny\	-tres	4a\	-tres	.	.
2A/	no-	2a\	no-	(4a\	no-	(4dd\	no-	2a\	no-	2e/	no-	2a\	no-	.	.
.	.	.	.	4e/)	.	4cc#X\)	.	.	.	.	.	.	.	.	.
2d\	-ſtros	2f#X\	-ſtros	2f#X/	-stros	2dd\	-ſtros	2d\	-ſtros	2d/	-ſtros	2a\	-ſtros	.	.
=171-	=171-	=171-	=171-	=171-	=171-	=171-	=171-	=171-	=171-	=171-	=171-	=171-	=171-	=171-	=171-
1r	.	1r	.	1r	.	1r	.	1r	.	1r	.	1r	.	4dd\	A-
.	.	.	.	.	.	.	.	.	.	.	.	.	.	4dd\	-bra-
.	.	.	.	.	.	.	.	.	.	.	.	.	.	2ee\	-ham
4G/	A-	4d/	A-	4b\	A-	4dd\	A-	4g\	A-	4g\	A-	4b\	A-	1r	.
4G/	-bra-	4d/	-bra-	4g\	-bra-	4dd\	-bra-	4g\	-bra-	4g\	-bra-	4b\	-bra-	.	.
2c/	-ham	2c/	-ham	2g\	-ham	2ee\	-ham	2c/	-ham	2e/	-ham	2cc\	-ham	.	.
=172-	=172-	=172-	=172-	=172-	=172-	=172-	=172-	=172-	=172-	=172-	=172-	=172-	=172-	=172-	=172-
0r	.	0r	.	0r	.	0r	.	0r	.	0r	.	0r	.	2dd\	et
.	.	.	.	.	.	.	.	.	.	.	.	.	.	4cc\	se-
.	.	.	.	.	.	.	.	.	.	.	.	.	.	4cc\	-mi-
.	.	.	.	.	.	.	.	.	.	.	.	.	.	4b/	-ni
.	.	.	.	.	.	.	.	.	.	.	.	.	.	4b/	e-
.	.	.	.	.	.	.	.	.	.	.	.	.	.	2a/	-ius
=173-	=173-	=173-	=173-	=173-	=173-	=173-	=173-	=173-	=173-	=173-	=173-	=173-	=173-	=173-	=173-
2G/	et	2B/	et	2b\	et	2dd\	et	2g\	et	2B/	et	2b\	et	0r	.
4A/	ſe-	4c/	ſe-	4a\	ſe-	4ccny\	ſe-	4e\	ſe-	4e/	ſe-	4ee\	ſe-	.	.
4A/	-mi-	4c/	-mi-	4a\	-mi-	4cc\	-mi-	4e\	-mi-	4e/	-mi-	4ee\	-mi-	.	.
*	*	*	*	*	*	*	*	*	*	*	*	*custos:b	*	*	*
4B/	-ni	4d/	-ni	4g/	-ni	4b/	-ni	4d\	-ni	4g\	-ni	4dd\	-ni	.	.
!	!	!	!	!	!	!	!	!	!	!	!	!LO:LB:g=original	!	!	!
4G/	e-	4d/	e-	4dd\	e-	4b/	e-	4g\	e-	4g\	e-	4b\	e-	.	.
2d\	-ius	2d/	-ius	2dd\	-ius	2a/	-ius	2d\	-ius	2f#X\	-ius	2dd\	-ius	.	.
=174-	=174-	=174-	=174-	=174-	=174-	=174-	=174-	=174-	=174-	=174-	=174-	=174-	=174-	=174-	=174-
0r	.	0r	.	0r	.	0r	.	0r	.	0r	.	0r	.	2dd\	et
.	.	.	.	.	.	.	.	.	.	.	.	.	.	4cc\	se-
.	.	.	.	.	.	.	.	.	.	.	.	.	.	4cc\	-mi-
.	.	.	.	.	.	.	.	.	.	.	.	.	.	4b/	-ni
*	*	*	*	*	*	*	*	*	*	*	*	*	*	*custos:a	*
.	.	.	.	.	.	.	.	.	.	.	.	.	.	4b/	e-
!	!	!	!	!	!	!	!	!	!	!	!	!	!	!LO:LB:g=original	!
.	.	.	.	.	.	.	.	.	.	.	.	.	.	4a/	-ius
.	.	.	.	.	.	.	.	.	.	.	.	.	.	4dd\	in
=175-	=175-	=175-	=175-	=175-	=175-	=175-	=175-	=175-	=175-	=175-	=175-	=175-	=175-	=175-	=175-
*	*	*	*	*	*	*	*	*custos:G	*	*	*	*	*	*	*
1r	.	1r	.	1r	.	1r	.	1r	.	1r	.	1r	.	4.cc\	ſe-
.	.	.	.	.	.	.	.	.	.	.	.	.	.	8b\	.
.	.	.	.	.	.	.	.	.	.	.	.	.	.	4a/	.
.	.	.	.	.	.	.	.	.	.	.	.	.	.	4a/	-cu-
!	!	!	!	!	!	!	!	!LO:LB:g=original	!	!	!	!	!	!	!
4g\	A-	4g\	A-	4b\	A-	4dd\	A-	4G/	A-	4g\	A-	4b\	A-	1g	-la
4g\	-bra-	4g\	-bra-	4g/	-bra-	4dd\	-bra-	4G/	-bra-	4g\	-bra-	4b\	-bra-	.	.
*custos:G	*	*	*	*	*	*	*	*	*	*	*	*	*	*	*
2c/	-ham	2e/	-ham	2g/	-ham	2ee\	-ham	2c/	-ham	2e/	-ham	2cc\	-ham	.	.
=176-	=176-	=176-	=176-	=176-	=176-	=176-	=176-	=176-	=176-	=176-	=176-	=176-	=176-	=176-	=176-
*	*	*custos:g	*	*	*	*custos:cc	*	*	*	*custos:d	*	*	*	*	*
!LO:LB:g=original	!	!	!	!	!	!	!	!	!	!	!	!	!	!	!
2G/	et	2g\	et	2b\	et	2dd\	et	0r	.	0r	.	0r	.	0r	.
*	*	*	*	*custos:cc	*	*	*	*	*	*	*	*	*	*	*
!	!	!LO:PB:g=original	!	!	!	!LO:PB:g=original	!	!	!	!	!	!	!	!	!
4A/	ſe-	4e/	ſe-	4cc\	ſe-	4cc\	ſe-	.	.	.	.	.	.	.	.
!	!	!	!	!LO:LB:g=original	!	!	!	!	!	!	!	!	!	!	!
4A/	-mi-	4e/	-mi-	4cc\	-mi-	4cc\	-mi-	.	.	.	.	.	.	.	.
4B/	-ni	4d/	-ni	4dd\	-ni	4b/	-ni	.	.	.	.	.	.	.	.
4G/	e-	4g\	e-	4b\	e-	4b/	e-	.	.	.	.	.	.	.	.
4d\	-ius	4fny\	-ius	4dd\	-ius	4a/	-ius	.	.	.	.	.	.	.	.
4A/	in	4e/	in	4ee\	in	4cc\	in	.	.	.	.	.	.	.	.
=177-	=177-	=177-	=177-	=177-	=177-	=177-	=177-	=177-	=177-	=177-	=177-	=177-	=177-	=177-	=177-
!	!	!	!	!	!	!	!	!	!	!LO:LB:g=original	!	!	!	!	!
4.B/	ſae-	4.d/	ſae-	2.dd\	sae-	2b/	ſae-	2g\	in	2d/	in	2g/	in	1r	.
8c/	.	8e\	.	.	.	.	.	.	.	.	.	.	.	.	.
4.d\	.	4f#X\	.	.	.	2a/	-cu-	4.d\	sae-	4.d/	sae-	4.a\	sae-	.	.
.	.	4f#\	-cu-	4dd\	-cu-	.	.	.	.	.	.	.	.	.	.
8d\	-cu-	.	.	.	.	.	.	8d\	-cu-	8d/	-cu-	8a\	-cu-	.	.
=178-	=178-	=178-	=178-	=178-	=178-	=178-	=178-	=178-	=178-	=178-	=178-	=178-	=178-	=178-	=178-
*M3/1	*	*M3/1	*	*M3/1	*	*M3/1	*	*M3/1	*	*M3/1	*	*M3/1	*	*M3/1	*
0.G	-la	0.g	-la	0.b	-la	0.g	-la	0.g	-la	0.d	-la	0.b	-la	0dd	E-
.	.	.	.	.	.	.	.	.	.	.	.	.	.	1b	-ia
=179-	=179-	=179-	=179-	=179-	=179-	=179-	=179-	=179-	=179-	=179-	=179-	=179-	=179-	=179-	=179-
1%3r	.	1%3r	.	1%3r	.	1%3r	.	1%3r	.	1%3r	.	1%3r	.	0dd	E-
.	.	.	.	.	.	.	.	.	.	.	.	.	.	1b	-ia
=180-	=180-	=180-	=180-	=180-	=180-	=180-	=180-	=180-	=180-	=180-	=180-	=180-	=180-	=180-	=180-
0G	E-	0d	e-	0b	E-	0dd	e-	0g	e-	0g	e-	1.b	e-	1%6r	.
.	.	.	.	.	.	.	.	.	.	.	.	2cc\	-ia	.	.
1G	-ia	1d	-ia	1b	-ia	1b	-ia	1g	-ia	1g	-ia	1dd	e-	.	.
=181-	=181-	=181-	=181-	=181-	=181-	=181-	=181-	=181-	=181-	=181-	=181-	=181-	=181-	=181-	=181-
*	*	*	*ij	*	*	*	*	*	*	*lig	*	*	*	*	*
0d	e-	0d	e-	0a	e-	0dd	e-	0d	e-	1a	e-	0a	.	.	.
.	.	.	.	.	.	.	.	.	.	1d	.	.	.	.	.
*	*	*	*	*	*	*	*	*	*	*Xlig	*	*	*	*	*
1G	-ia	1d	-ia	1g	-ia	1b	-ia	1g	-ia	1d	-ia	1b	-ia	.	.
*	*	*	*Xij	*	*	*	*	*	*	*	*	*	*	*	*
=182-	=182-	=182-	=182-	=182-	=182-	=182-	=182-	=182-	=182-	=182-	=182-	=182-	=182-	=182-	=182-
1%6r	.	1%6r	.	1%6r	.	1%6r	.	1%6r	.	1%6r	.	1%6r	.	0g	Vir-
.	.	.	.	.	.	.	.	.	.	.	.	.	.	1a	-go
=183-	=183-	=183-	=183-	=183-	=183-	=183-	=183-	=183-	=183-	=183-	=183-	=183-	=183-	=183-	=183-
.	.	.	.	.	.	.	.	.	.	.	.	.	.	0b	De-
.	.	.	.	.	.	.	.	.	.	.	.	.	.	1cc	-um
=184-	=184-	=184-	=184-	=184-	=184-	=184-	=184-	=184-	=184-	=184-	=184-	=184-	=184-	=184-	=184-
1%6r	.	1%6r	.	1%6r	.	1%6r	.	0g	Vir-	0g	Vir-	0g	Vir-	0b	ge-
.	.	.	.	.	.	.	.	1d	-go	1f#X	-go	1a	-go	1a	-nu-
=185-	=185-	=185-	=185-	=185-	=185-	=185-	=185-	=185-	=185-	=185-	=185-	=185-	=185-	=185-	=185-
*	*	*	*	*	*	*	*	*	*	*	*	*2\right	*	*	*
.	.	.	.	.	.	.	.	0G	De-	0g	De-	2g\	De-	0.b	-it.
.	.	.	.	.	.	.	.	.	.	.	.	2a\	.	.	.
.	.	.	.	.	.	.	.	.	.	.	.	2b\	.	.	.
.	.	.	.	.	.	.	.	.	.	.	.	2g\	.	.	.
*	*	*	*	*	*	*	*	*	*	*	*	*2\left	*	*	*
.	.	.	.	.	.	.	.	1c	-um	1e	-um	1cc	-um	.	.
=186-	=186-	=186-	=186-	=186-	=186-	=186-	=186-	=186-	=186-	=186-	=186-	=186-	=186-	=186-	=186-
0G	Vir-	0d	Vir-	0g	Vir-	0dd	Vir-	0g	ge-	0g	ge-	0b	ge-	1%6r	.
1d	-go	1d	-go	1a	-go	1dd	-go	1d	-nu-	1f#X	-nu-	1a	-nu-	.	.
=187-	=187-	=187-	=187-	=187-	=187-	=187-	=187-	=187-	=187-	=187-	=187-	=187-	=187-	=187-	=187-
*	*	*lig	*	*	*	*	*	*	*	*	*	*	*	*	*
0G	De-	1d	De-	0b	De-	0dd	De-	0g	-it	0.g	-it	0b	-it	.	.
.	.	1B	.	.	.	.	.	.	.	.	.	.	.	.	.
*	*	*Xlig	*	*	*	*	*	*	*	*	*	*	*	*	*
1c	-u(m)	1e	-um	1cc	-um	1ee	-um	1r	.	.	.	1r	.	.	.
=188-	=188-	=188-	=188-	=188-	=188-	=188-	=188-	=188-	=188-	=188-	=188-	=188-	=188-	=188-	=188-
0g	ge-	0g	ge-	0b	ge-	0dd	ge-	1%6r	.	1%6r	.	1%6r	.	1%3r	.
1d	-nu-	1f#X	-nu-	1a	-nu-	1dd	-nu-	.	.	.	.	.	.	.	.
=189-	=189-	=189-	=189-	=189-	=189-	=189-	=189-	=189-	=189-	=189-	=189-	=189-	=189-	=189-	=189-
0.G	-it	0.g	-it	0.b	-it	0.dd	-it	.	.	.	.	.	.	1r	.
.	.	.	.	.	.	.	.	.	.	.	.	.	.	1r	.
.	.	.	.	.	.	.	.	.	.	.	.	.	.	1dd	e-
=190-	=190-	=190-	=190-	=190-	=190-	=190-	=190-	=190-	=190-	=190-	=190-	=190-	=190-	=190-	=190-
1%3r	.	1%3r	.	1%3r	.	1%3r	.	1%3r	.	1%3r	.	1%3r	.	1b	-ia
.	.	.	.	.	.	.	.	.	.	.	.	.	.	1dd	e-
.	.	.	.	.	.	.	.	.	.	.	.	.	.	1b	-ia
=191-	=191-	=191-	=191-	=191-	=191-	=191-	=191-	=191-	=191-	=191-	=191-	=191-	=191-	=191-	=191-
!	!	!	!	!	!	!	!	!	!	!	!	!	!	!LO:TX:a:t=6	!
1G	e-	1d	e-	1g	e-	1dd	e-	1g	e-	1g	e-	1b	e-	00.dd	e-
1G	-ia	1d	-ia	1g	-ia	1b	-ia	1g	-ia	1g	-ia	1g	-ia	.	.
*	*	*	*ij	*	*	*	*	*	*ij	*	*ij	*	*ij	*	*
1B	e-	1B	e-	1g	e-	1dd	e-	1d	e-	1d	e-	1b	e-	.	.
=192-	=192-	=192-	=192-	=192-	=192-	=192-	=192-	=192-	=192-	=192-	=192-	=192-	=192-	=192-	=192-
1G	-ia	1d	-ia	1b	-ia	1b	-ia	1g	-ia	1d	-ia	1dd	-ia	.	.
*	*	*	*Xij	*	*	*	*	*	*Xij	*	*Xij	*	*Xij	*	*
0d	e-	0d	e-	0a	e-	0dd	e-	0d	e-	0d	e-	0a	e-	.	.
=193-	=193-	=193-	=193-	=193-	=193-	=193-	=193-	=193-	=193-	=193-	=193-	=193-	=193-	=193-	=193-
0.G;	-ia	0.d;	-ia	0.g;	-ia	0.dd;	-ia	0.g;	-ia	0.d;	-ia	0.b;	-ia	0.b;	-ia.
=194||-	=194||-	=194||-	=194||-	=194||-	=194||-	=194||-	=194||-	=194||-	=194||-	=194||-	=194||-	=194||-	=194||-	=194||-	=194||-
*M3/1	*	*M3/1	*	*M3/1	*	*M3/1	*	*M3/1	*	*M3/1	*	*M3/1	*	*M3/1	*
!LO:LB:g=original	!	!LO:LB:g=original	!	!LO:LB:g=original	!	!LO:LB:g=original	!	!	!	!LO:LB:g=original	!	!LO:LB:g=original	!	!LO:LB:g=original	!
1%6r	.	1%6r	.	1%6r	.	1%6r	.	1%6r	.	1%6r	.	1%6r	.	0dd	Si-
.	.	.	.	.	.	.	.	.	.	.	.	.	.	1b	-cut
=195-	=195-	=195-	=195-	=195-	=195-	=195-	=195-	=195-	=195-	=195-	=195-	=195-	=195-	=195-	=195-
.	.	.	.	.	.	.	.	.	.	.	.	.	.	0g	e-
.	.	.	.	.	.	.	.	.	.	.	.	.	.	1b	-rat
=196-	=196-	=196-	=196-	=196-	=196-	=196-	=196-	=196-	=196-	=196-	=196-	=196-	=196-	=196-	=196-
1%3r	.	1%3r	.	1%3r	.	1%3r	.	1%3r	.	1%3r	.	1%3r	.	0dd	in
.	.	.	.	.	.	.	.	.	.	.	.	.	.	1ee	Prin-
=197-	=197-	=197-	=197-	=197-	=197-	=197-	=197-	=197-	=197-	=197-	=197-	=197-	=197-	=197-	=197-
0G	Si-	0g	Si-	0b	Si-	0dd	Si-	0g	Si-	0g	Si-	0b	Si-	1.dd	-ci-
.	.	.	.	.	.	.	.	.	.	.	.	.	.	2dd\	-pi-
1G	-cut	1g	-cut	1g	-cut	1b	-cut	1g	-cut	1g	-cut	1dd	-cut	1dd	-o
=198-	=198-	=198-	=198-	=198-	=198-	=198-	=198-	=198-	=198-	=198-	=198-	=198-	=198-	=198-	=198-
0c	e-	0e	e-	0g	e-	0g	e-	0c	e-	0g	e-	0cc	e-	1%6r	.
1G	-rat	1d	-rat	1b	-rat	1b	-rat	1g	-rat	1g	-rat	1b	-rat	.	.
=199-	=199-	=199-	=199-	=199-	=199-	=199-	=199-	=199-	=199-	=199-	=199-	=199-	=199-	=199-	=199-
0d	in	(>1.fny	in	0a	in	0dd	in	0d	in	0fny	in	1.a	in	.	.
.	.	2g\)	.	.	.	.	.	.	.	.	.	2b\	.	.	.
1A	Prin-	1a	Prin-	1a	Prin-	1ee	Prin-	1a	Prin-	1e	Prin-	1cc#	Prin-	.	.
=200-	=200-	=200-	=200-	=200-	=200-	=200-	=200-	=200-	=200-	=200-	=200-	=200-	=200-	=200-	=200-
1.d	-ci-	1.f#X	-ci-	1.a	-ci-	1.dd	-ci-	1.d	-ci-	1.a	-ci-	1.dd	-ci-	1%3r	.
*	*	*	*	*	*	*	*	*2\right	*	*	*	*	*	*	*
2d\	-pi-	2f#\	-pi-	2a\	-pi-	2dd\	-pi-	2d\	-pi-	2a\	-pi-	2dd\	-pi-	.	.
*	*	*	*	*	*	*	*	*2\left	*	*	*	*	*	*	*
1d	-o	1f#	-o	1a	-o	1dd	-o	1d	-o	1a	-o	1a	-o	.	.
=201-	=201-	=201-	=201-	=201-	=201-	=201-	=201-	=201-	=201-	=201-	=201-	=201-	=201-	=201-	=201-
1%6r	.	1%6r	.	1%6r	.	1%6r	.	1%6r	.	1%6r	.	1%6r	.	0dd	et
.	.	.	.	.	.	.	.	.	.	.	.	.	.	1b	nunc
=202-	=202-	=202-	=202-	=202-	=202-	=202-	=202-	=202-	=202-	=202-	=202-	=202-	=202-	=202-	=202-
.	.	.	.	.	.	.	.	.	.	.	.	.	.	1.g	et
.	.	.	.	.	.	.	.	.	.	.	.	.	.	2a/	.
.	.	.	.	.	.	.	.	.	.	.	.	.	.	2b/	.
.	.	.	.	.	.	.	.	.	.	.	.	.	.	2cc\	.
=203-	=203-	=203-	=203-	=203-	=203-	=203-	=203-	=203-	=203-	=203-	=203-	=203-	=203-	=203-	=203-
1%3r	.	1%3r	.	1%3r	.	1%3r	.	1%3r	.	1%3r	.	1%3r	.	(0dd	sem-
.	.	.	.	.	.	.	.	.	.	.	.	.	.	1ee)	.
=204-	=204-	=204-	=204-	=204-	=204-	=204-	=204-	=204-	=204-	=204-	=204-	=204-	=204-	=204-	=204-
1.G	et	0d	et	0g	et	0dd	et	0g	et	0g	et	1.b	et	0.dd	-per
2A/	.	.	.	.	.	.	.	.	.	.	.	2ccny\	.	.	.
(>2B/	nunc	1d	nunc	1dd	nunc	1b	nunc	1g	nunc	1g	nunc	1dd	nunc	.	.
2c/)	.	.	.	.	.	.	.	.	.	.	.	.	.	.	.
=205-	=205-	=205-	=205-	=205-	=205-	=205-	=205-	=205-	=205-	=205-	=205-	=205-	=205-	=205-	=205-
1d	et	1fny	et	1a	et	0a	et	1d	et	1f	et	1a	et	1%6r	.
*	*	*	*	*	*	*	*	*	*	*	*	*lig	*	*	*
0A	ſem-	0a	sem-	0a	ſem-	.	.	0a	ſem-	0e	sem-	1dd	ſem-	.	.
!	!	!	!	!	!	!	!	!	!	!	!	!LO:TX:a:t=P:problem=# above	!	!	!
.	.	.	.	.	.	1ee	ſem-	.	.	.	.	1cc#X	.	.	.
*	*	*	*	*	*	*	*	*	*	*	*	*Xlig	*	*	*
=206-	=206-	=206-	=206-	=206-	=206-	=206-	=206-	=206-	=206-	=206-	=206-	=206-	=206-	=206-	=206-
!	!	!	!	!	!	!	!	!	!	!LO:TX:a:t=P:problem=# above	!	!	!	!	!
0.d	-per	0.f#X	-per	0.a	-per	0.dd	-per	0.d	-per.	0.f#X	-per	0.dd	-per	.	.
=207-	=207-	=207-	=207-	=207-	=207-	=207-	=207-	=207-	=207-	=207-	=207-	=207-	=207-	=207-	=207-
1%6r	.	1%6r	.	1%6r	.	1%6r	.	1%6r	.	1%6r	.	1%6r	.	0dd	et
.	.	.	.	.	.	.	.	.	.	.	.	.	.	1cc	in
=208-	=208-	=208-	=208-	=208-	=208-	=208-	=208-	=208-	=208-	=208-	=208-	=208-	=208-	=208-	=208-
.	.	.	.	.	.	.	.	.	.	.	.	.	.	1.b	sae-
*	*	*	*	*	*	*	*	*	*	*	*	*	*	*custos:dd	*
.	.	.	.	.	.	.	.	.	.	.	.	.	.	2b/	-cu-
!	!	!	!	!	!	!	!	!	!	!	!	!	!	!LO:PB:g=original	!
.	.	.	.	.	.	.	.	.	.	.	.	.	.	1dd	-la
=209-	=209-	=209-	=209-	=209-	=209-	=209-	=209-	=209-	=209-	=209-	=209-	=209-	=209-	=209-	=209-
1%6r	.	1%6r	.	1%6r	.	1%6r	.	1%6r	.	1%6r	.	1%6r	.	0cc	sae-
.	.	.	.	.	.	.	.	.	.	.	.	.	.	1b	-cu-
=210-	=210-	=210-	=210-	=210-	=210-	=210-	=210-	=210-	=210-	=210-	=210-	=210-	=210-	=210-	=210-
.	.	.	.	.	.	.	.	.	.	.	.	.	.	0a	-lo-
.	.	.	.	.	.	.	.	.	.	.	.	.	.	1a	-rum
=211-	=211-	=211-	=211-	=211-	=211-	=211-	=211-	=211-	=211-	=211-	=211-	=211-	=211-	=211-	=211-
0G	et	0d	et	0g	et	0dd	et	0g	et	0g	et	0b	et	1%6r	.
*custos:G	*	*	*	*	*	*	*	*	*	*	*	*	*	*	*
1c	in	1e	in	1g	in	1cc	in	1d	in	1e	in	1ccny	in	.	.
=212-	=212-	=212-	=212-	=212-	=212-	=212-	=212-	=212-	=212-	=212-	=212-	=212-	=212-	=212-	=212-
!LO:PB:g=original	!	!	!	!	!	!	!	!	!	!	!	!	!	!	!
1.G	ſae-	1.d	sae-	1.b	ſae-	1.b	ſae-	1.g	ſae-	1.g	ſae-	1.dd	sae-	.	.
*	*	*	*	*	*	*	*	*	*	*	*	*custos:dd	*	*	*
2A/	-cu-	2d/	-cu-	2g/	-cu-	2b/	-cu-	2g\	-cu-	2g\	-cu-	2dd\	-cu-	.	.
*	*	*	*	*	*	*	*	*custos:g	*	*custos:e	*	*	*	*	*
!	!	!	!	!	!	!	!	!	!	!	!	!LO:LB:g=original	!	!	!
1B	-la	1B	-la	1g	-la	1dd	-la	1d	-la	1g	-la	1dd	-la	.	.
=213-	=213-	=213-	=213-	=213-	=213-	=213-	=213-	=213-	=213-	=213-	=213-	=213-	=213-	=213-	=213-
*	*	*custos:B	*	*	*	*	*	*	*	*	*	*	*	*	*
!	!	!	!	!	!	!	!	!LO:LB:g=original	!	!LO:LB:g=original	!	!	!	!	!
0c	ſae-	0e	sae-	0g	ſae-	0cc	ſae-	0g	ſae-	0e	ſae-	0ee	sae-	1%6r	.
*	*	*	*	*custos:a	*	*custos:a	*	*	*	*	*	*	*	*	*
!	!	!LO:LB:g=original	!	!	!	!	!	!	!	!	!	!	!	!	!
1G	-cu-	1B	-cu-	1g	-cu-	1b	-cu-	1g	-cu-	1g	-cu-	1dd	-cu-	.	.
=214-	=214-	=214-	=214-	=214-	=214-	=214-	=214-	=214-	=214-	=214-	=214-	=214-	=214-	=214-	=214-
*col	*	*	*	*	*	*	*	*	*	*	*	*	*	*	*
!	!	!	!	!LO:LB:g=original	!	!LO:LB:g=original	!	!	!	!	!	!	!	!	!
0d	-lo-	0d	-lo-	0a	-lo-	0a	-lo-	0d	-lo-	0f#X	-lo-	0dd	-lo-	.	.
1d	-rum	1d	-rum	1a	-rum	1a	-rum	1d	-rum	1f#	-rum	1dd	-rum	.	.
*Xcol	*	*	*	*	*	*	*	*	*	*	*	*	*	*	*
=215-	=215-	=215-	=215-	=215-	=215-	=215-	=215-	=215-	=215-	=215-	=215-	=215-	=215-	=215-	=215-
1%6r	.	1%6r	.	1%6r	.	1%6r	.	1%6r	.	1%6r	.	1%6r	.	0b	et
.	.	.	.	.	.	.	.	.	.	.	.	.	.	1ee	in
=216-	=216-	=216-	=216-	=216-	=216-	=216-	=216-	=216-	=216-	=216-	=216-	=216-	=216-	=216-	=216-
.	.	.	.	.	.	.	.	.	.	.	.	.	.	1.b	sae-
.	.	.	.	.	.	.	.	.	.	.	.	.	.	2b/	-cu-
.	.	.	.	.	.	.	.	.	.	.	.	.	.	1g	-la
=217-	=217-	=217-	=217-	=217-	=217-	=217-	=217-	=217-	=217-	=217-	=217-	=217-	=217-	=217-	=217-
1%6r	.	1%6r	.	1%6r	.	1%6r	.	0g	ſae-	1%6r	.	0g	sae-	0b	sae-
.	.	.	.	.	.	.	.	1d	-cu-	.	.	1f#X	-cu-	1a	-cu-
=218-	=218-	=218-	=218-	=218-	=218-	=218-	=218-	=218-	=218-	=218-	=218-	=218-	=218-	=218-	=218-
.	.	.	.	.	.	.	.	0f	-lo-	.	.	0a	-lo-	0cc	-lo-
.	.	.	.	.	.	.	.	1g	-rum	.	.	1g	-rum	1b	-rum
=219-	=219-	=219-	=219-	=219-	=219-	=219-	=219-	=219-	=219-	=219-	=219-	=219-	=219-	=219-	=219-
1%3r	.	1%3r	.	1%3r	.	1%3r	.	0d	A-	1%6r	.	0f#X	A-	0a	A-
.	.	.	.	.	.	.	.	1G	-men	.	.	1g	-men	1g	-men
=220-	=220-	=220-	=220-	=220-	=220-	=220-	=220-	=220-	=220-	=220-	=220-	=220-	=220-	=220-	=220-
0d	A-	0d	A-	0f#X	A-	0a	A-	1%6r	.	.	.	1%3r	.	1%3r	.
1G	-men	1d	-men	1g	-men	1g	-men	.	.	.	.	.	.	.	.
=221-	=221-	=221-	=221-	=221-	=221-	=221-	=221-	=221-	=221-	=221-	=221-	=221-	=221-	=221-	=221-
1%6r	.	1%6r	.	1%6r	.	1%6r	.	.	.	1%6r	.	1%6r	.	0g	et
.	.	.	.	.	.	.	.	.	.	.	.	.	.	1a	in
=222-	=222-	=222-	=222-	=222-	=222-	=222-	=222-	=222-	=222-	=222-	=222-	=222-	=222-	=222-	=222-
.	.	.	.	.	.	.	.	1%3r	.	.	.	.	.	1.b	sae-
.	.	.	.	.	.	.	.	.	.	.	.	.	.	2b/	-cu-
.	.	.	.	.	.	.	.	.	.	.	.	.	.	1cc	-la
=223-	=223-	=223-	=223-	=223-	=223-	=223-	=223-	=223-	=223-	=223-	=223-	=223-	=223-	=223-	=223-
0G	et	0d	et	0b	et	0dd	et	0g	et	0g	et	0g	et	1%6r	.
1d	in	1d	in	1a	in	1dd	in	1d	in	1f#X	in	1a	in	.	.
=224-	=224-	=224-	=224-	=224-	=224-	=224-	=224-	=224-	=224-	=224-	=224-	=224-	=224-	=224-	=224-
1.G	ſae-	1.d	sae-	1.dd	ſae-	1.b	ſae-	1.g	sae-	1.g	ſae-	1.b	ſae-	.	.
2G/	-cu-	2B/	-cu-	2dd\	-cu-	2b/	-cu-	2g\	-cu-	2g\	-cu-	2b\	-cu-	.	.
1c	-la	1e	-la	1cc	-la	1g	-la	1c	-la	1g	-la	1cc	-la	.	.
=225-	=225-	=225-	=225-	=225-	=225-	=225-	=225-	=225-	=225-	=225-	=225-	=225-	=225-	=225-	=225-
1%6r	.	1%6r	.	1%6r	.	1%6r	.	1%6r	.	1%6r	.	1%6r	.	0dd	sae-
.	.	.	.	.	.	.	.	.	.	.	.	.	.	1cc	-cu-
=226-	=226-	=226-	=226-	=226-	=226-	=226-	=226-	=226-	=226-	=226-	=226-	=226-	=226-	=226-	=226-
.	.	.	.	.	.	.	.	.	.	.	.	.	.	0b	-lo-
.	.	.	.	.	.	.	.	.	.	.	.	.	.	1cc	-rum
=227-	=227-	=227-	=227-	=227-	=227-	=227-	=227-	=227-	=227-	=227-	=227-	=227-	=227-	=227-	=227-
1%3r	.	1%3r	.	1%3r	.	1%3r	.	1%6r	.	1%6r	.	1%6r	.	0a	A-
.	.	.	.	.	.	.	.	.	.	.	.	.	.	1g	-men
=228-	=228-	=228-	=228-	=228-	=228-	=228-	=228-	=228-	=228-	=228-	=228-	=228-	=228-	=228-	=228-
0G	ſae-	0g	ſae-	0b	ſae-	0dd	ſae-	.	.	.	.	.	.	1%6r	.
1A	-cu-	1e	-cu-	1a	-cu-	1cc	-cu-	.	.	.	.	.	.	.	.
=229-	=229-	=229-	=229-	=229-	=229-	=229-	=229-	=229-	=229-	=229-	=229-	=229-	=229-	=229-	=229-
0B	-lo-	0d	-lo-	0g	-lo-	0b	-lo-	1%6r	.	1%6r	.	1%6r	.	.	.
1c	-rum	1e	-rum	1g	-rum	1cc	-rum	.	.	.	.	.	.	.	.
=230-	=230-	=230-	=230-	=230-	=230-	=230-	=230-	=230-	=230-	=230-	=230-	=230-	=230-	=230-	=230-
0d	A-	0f#X	A-	0dd	A-	0a	A-	.	.	.	.	.	.	1%6r	.
1G	-men	1g	-men	1b	-men	1g	-men	.	.	.	.	.	.	.	.
=231-	=231-	=231-	=231-	=231-	=231-	=231-	=231-	=231-	=231-	=231-	=231-	=231-	=231-	=231-	=231-
1%6r	.	1%6r	.	1%6r	.	1%6r	.	0d	A-	0f#X	A-	0a	A-	.	.
.	.	.	.	.	.	.	.	1G	-men	1g	-men	1g	-men	.	.
=232-	=232-	=232-	=232-	=232-	=232-	=232-	=232-	=232-	=232-	=232-	=232-	=232-	=232-	=232-	=232-
.	.	.	.	.	.	.	.	1%6r	.	1%6r	.	1%6r	.	0dd	E-
*	*	*	*	*	*	*	*	*	*	*	*	*	*	*custos:dd	*
.	.	.	.	.	.	.	.	.	.	.	.	.	.	1b	-ia
=233-	=233-	=233-	=233-	=233-	=233-	=233-	=233-	=233-	=233-	=233-	=233-	=233-	=233-	=233-	=233-
*custos:G	*	*	*	*	*	*	*	*	*	*	*	*	*	*	*
!	!	!	!	!	!	!	!	!	!	!	!	!	!	!LO:LB:g=original	!
1%3r	.	1%3r	.	1%3r	.	1%3r	.	.	.	.	.	.	.	0dd	e-
.	.	.	.	.	.	.	.	.	.	.	.	.	.	1b	-ia
=234-	=234-	=234-	=234-	=234-	=234-	=234-	=234-	=234-	=234-	=234-	=234-	=234-	=234-	=234-	=234-
!LO:LB:g=original	!	!	!	!	!	!	!	!	!	!	!	!	!	!	!
0G	E-	0d	e-	0b	e-	0dd	e-	0g	e-	0g	e-	1.b	e-	1%6r	.
*	*	*	*	*	*	*	*	*	*	*	*	*2\right	*	*	*
.	.	.	.	.	.	.	.	.	.	.	.	2cc\	.	.	.
1G	-ia	1d	-ia	1b	-ia	1b	-ia	1g	-ia	1g	-ia	1dd	-ia	.	.
=235-	=235-	=235-	=235-	=235-	=235-	=235-	=235-	=235-	=235-	=235-	=235-	=235-	=235-	=235-	=235-
*	*	*	*ij	*	*	*	*	*	*	*lig	*	*	*	*	*
0d	e-	0d	e-	0a	e-	0dd	e-	0d	e-	1a	e-	0a	e-	.	.
.	.	.	.	.	.	.	.	.	.	1d	.	.	.	.	.
*	*	*	*	*	*	*	*	*	*	*Xlig	*	*	*	*	*
1G	-ia	1d	-ia	1g	-ia	1b	-ia	1g	-ia	1d	-ia	1b	-ia	.	.
*	*	*	*Xij	*	*	*	*	*	*	*	*	*	*	*	*
=236-	=236-	=236-	=236-	=236-	=236-	=236-	=236-	=236-	=236-	=236-	=236-	=236-	=236-	=236-	=236-
!	!	!	!	!	!	!	!	!	!	!	!	!LO:LB:g=original	!	!	!
1%6r	.	1%6r	.	1%6r	.	1%6r	.	1%6r	.	1%6r	.	1%6r	.	0g	Vir-
.	.	.	.	.	.	.	.	.	.	.	.	.	.	1a	-go
=237-	=237-	=237-	=237-	=237-	=237-	=237-	=237-	=237-	=237-	=237-	=237-	=237-	=237-	=237-	=237-
.	.	.	.	.	.	.	.	.	.	.	.	.	.	0b	De-
.	.	.	.	.	.	.	.	.	.	.	.	.	.	1cc	-um
=238-	=238-	=238-	=238-	=238-	=238-	=238-	=238-	=238-	=238-	=238-	=238-	=238-	=238-	=238-	=238-
1%6r	.	1%6r	.	1%6r	.	1%6r	.	0g	Vir-	0g	Vir-	0g	Vir-	0b	ge-
.	.	.	.	.	.	.	.	1d	-go	1f#X	-go	1a	-go	1a	-nu-
=239-	=239-	=239-	=239-	=239-	=239-	=239-	=239-	=239-	=239-	=239-	=239-	=239-	=239-	=239-	=239-
.	.	.	.	.	.	.	.	0G	De-	0g	De-	2g\	De-	0.b	-it
.	.	.	.	.	.	.	.	.	.	.	.	2a\	.	.	.
.	.	.	.	.	.	.	.	.	.	.	.	2b\	.	.	.
.	.	.	.	.	.	.	.	.	.	.	.	2g/	.	.	.
*	*	*	*	*	*	*	*	*custos:g	*	*	*	*	*	*	*
.	.	.	.	.	.	.	.	1c	-um	1g	-um	1cc	-um	.	.
=240-	=240-	=240-	=240-	=240-	=240-	=240-	=240-	=240-	=240-	=240-	=240-	=240-	=240-	=240-	=240-
*	*	*	*	*	*	*	*	*	*	*custos:f#	*	*	*	*	*
!	!	!	!	!	!	!	!	!LO:LB:g=original	!	!	!	!	!	!	!
0G	Vir-	0d	Vir-	0g	Vir-	0dd	Vir-	0g	ge-	0g	ge-	0b	ge-	1%6r	.
!	!	!	!	!	!	!	!	!	!	!LO:PB:g=original	!	!	!	!	!
1d	-go	1d	-go	1a	-go	1dd	-go	1d	-nu-	1f#X	-nu-	1a	-nu-	.	.
=241-	=241-	=241-	=241-	=241-	=241-	=241-	=241-	=241-	=241-	=241-	=241-	=241-	=241-	=241-	=241-
*	*	*lig	*	*	*	*	*	*	*	*	*	*	*	*	*
0G	De-	1d	De-	0b	De-	0dd	De-	0.g	-it.	0.g	-it	0b	-it	.	.
*	*	*custos:e	*	*	*	*	*	*	*	*	*	*	*	*	*
.	.	1B	.	.	.	.	.	.	.	.	.	.	.	.	.
*	*	*Xlig	*	*	*	*	*	*	*	*	*	*	*	*	*
*	*	*	*	*	*	*custos:dd	*	*	*	*	*	*	*	*	*
!	!	!LO:LB:g=original	!	!	!	!	!	!	!	!	!	!	!	!	!
1c	-um	1e	-um	1cc	-u(m)	1ee	-um	.	.	.	.	1r	.	.	.
=242-	=242-	=242-	=242-	=242-	=242-	=242-	=242-	=242-	=242-	=242-	=242-	=242-	=242-	=242-	=242-
!	!	!	!	!	!	!LO:LB:g=original	!	!	!	!	!	!	!	!	!
0g	ge-	0g	ge-	0b	ge-	0dd	ge-	1%6r	.	1%6r	.	1%6r	.	1%3r	.
*	*	*	*	*custos:b	*	*	*	*	*	*	*	*	*	*	*
1d	-nu-	1f#X	-nu-	1a	-nu-	1dd	-nu-	.	.	.	.	.	.	.	.
=243-	=243-	=243-	=243-	=243-	=243-	=243-	=243-	=243-	=243-	=243-	=243-	=243-	=243-	=243-	=243-
!	!	!	!	!LO:PB:g=original	!	!	!	!	!	!	!	!	!	!	!
0.G	-it	0.g	-it	0.b	-it	0.dd	-it	.	.	.	.	.	.	1r	.
.	.	.	.	.	.	.	.	.	.	.	.	.	.	1r	.
.	.	.	.	.	.	.	.	.	.	.	.	.	.	1dd	E-
=244-	=244-	=244-	=244-	=244-	=244-	=244-	=244-	=244-	=244-	=244-	=244-	=244-	=244-	=244-	=244-
1%3r	.	1%3r	.	1%3r	.	1%3r	.	1%6r	.	1%6r	.	1%6r	.	1b	-ia
.	.	.	.	.	.	.	.	.	.	.	.	.	.	1dd	e-
.	.	.	.	.	.	.	.	.	.	.	.	.	.	1b	-ia
=245-	=245-	=245-	=245-	=245-	=245-	=245-	=245-	=245-	=245-	=245-	=245-	=245-	=245-	=245-	=245-
1d	e-	1f#X	e-	1a	e-	1dd	e-	.	.	.	.	.	.	1%3r	.
1G	-ia	1g	-ia	1b	-ia	1b	-ia	.	.	.	.	.	.	.	.
*	*	*	*ij	*	*	*	*	*	*	*	*	*	*	*	*
1d	e-	1f#X	e-	1a	e-	1dd	e-	.	.	.	.	.	.	.	.
=246-	=246-	=246-	=246-	=246-	=246-	=246-	=246-	=246-	=246-	=246-	=246-	=246-	=246-	=246-	=246-
0.G	-ia	0.g	-ia	0.b	-ia	0.b	-ia	1r	.	1r	.	1r	.	1r	.
*	*	*	*Xij	*	*	*	*	*	*	*	*	*	*	*	*
.	.	.	.	.	.	.	.	1r	.	1r	.	1r	.	1r	.
.	.	.	.	.	.	.	.	1g	e-	1g	e-	1b	e-	1dd	e-
=247-	=247-	=247-	=247-	=247-	=247-	=247-	=247-	=247-	=247-	=247-	=247-	=247-	=247-	=247-	=247-
1%3r	.	1%3r	.	1%3r	.	1%3r	.	0c	-ia	0g	-ia	0cc	-ia	0ee	-ia
*	*	*	*	*	*	*	*	*	*ij	*	*	*	*ij	*	*
.	.	.	.	.	.	.	.	1c	e-	1e	e-	1cc	e-	1gg	e-
=248-	=248-	=248-	=248-	=248-	=248-	=248-	=248-	=248-	=248-	=248-	=248-	=248-	=248-	=248-	=248-
1r	.	1r	.	1r	.	1r	.	0G	-ia	0.g	-ia	0.b	-ia	0.dd	-ia
*	*	*	*	*	*	*	*	*	*Xij	*	*	*	*Xij	*	*
1r	.	1r	.	1r	.	1r	.	.	.	.	.	.	.	.	.
1G	e-	1g	e-	1b	e-	1dd	e-	1g	e-	.	.	.	.	.	.
=249-	=249-	=249-	=249-	=249-	=249-	=249-	=249-	=249-	=249-	=249-	=249-	=249-	=249-	=249-	=249-
0c	-ia	0e	-ia	0cc	-ia	0ee	-ia	0e,<	-ia	1%3r	.	1%3r	.	1%3r	.
*	*ij	*	*ij	*	*ij	*	*	*	*ij	*	*	*	*	*	*
1c	e-	1e	e-	1cc	e-	1gg	e-	1c	e-	.	.	.	.	.	.
=250-	=250-	=250-	=250-	=250-	=250-	=250-	=250-	=250-	=250-	=250-	=250-	=250-	=250-	=250-	=250-
0G	-ia	0g	-ia	0b	-ia	0dd	-ia	0g,<	-ia	1r	.	1r	.	1r	.
*	*	*	*	*	*Xij	*	*	*	*Xij	*	*	*	*	*	*
.	.	.	.	.	.	.	.	.	.	1r	.	1r	.	1r	.
1g	e-	1g	e-	1dd	e-	1b	e-	1G	e-	1g	e-	1b	e-	1gg	E-
=251-	=251-	=251-	=251-	=251-	=251-	=251-	=251-	=251-	=251-	=251-	=251-	=251-	=251-	=251-	=251-
*custos:c	*	*	*	*	*	*	*	*	*	*	*	*	*	*	*
0c	-ia	0g	-ia	0cc	-ia	0cc	-ia	0c	-ia	0g	-ia	0cc	-ia	0ee,<	-ia
*	*Xij	*	*Xij	*	*	*	*ij	*	*	*	*ij	*	*	*	*
!LO:LB:g=original	!	!	!	!	!	!	!	!	!	!	!	!	!	!	!
1c	e-	1e	e-	1cc	e-	1cc	e-	1c	e-	1g	e-	1g	e-	1ee,<	e-
=252-	=252-	=252-	=252-	=252-	=252-	=252-	=252-	=252-	=252-	=252-	=252-	=252-	=252-	=252-	=252-
0g	-ia	0.g	-ia	0b	-ia	0dd	-ia	0G	-ia	0.g	-ia	0b	-ia	0dd,<	-ia,
*	*	*	*	*	*	*	*	*	*ij	*	*Xij	*	*ij	*	*
1G	e-	.	.	1g	e-	1gg	e-	1g	e-	.	.	1b	e-	1dd	e-
=253-	=253-	=253-	=253-	=253-	=253-	=253-	=253-	=253-	=253-	=253-	=253-	=253-	=253-	=253-	=253-
*	*	*	*ij	*	*	*	*	*	*	*	*	*	*	*	*
0c	-ia	1g	e-	0g	-ia	0ee	-ia	0e	-ia	1%3r	.	0cc	-ia	0cc	-ia
*	*	*	*	*	*	*	*Xij	*	*	*	*	*	*	*	*
.	.	1e	-ia	.	.	.	.	.	.	.	.	.	.	.	.
*	*ij	*	*	*	*	*	*	*	*	*	*	*	*	*	*
1c	e-	1g	e-	1g	e-	1ee	e-	1c	e-	.	.	1cc	e-	1cc	e-
=254-	=254-	=254-	=254-	=254-	=254-	=254-	=254-	=254-	=254-	=254-	=254-	=254-	=254-	=254-	=254-
0G	-ia	1g	-ia	0b	-ia	0dd	-ia	0g	-ia	1r	.	0b	-ia	0dd	-ia-
*	*	*	*Xij	*	*	*	*	*	*Xij	*	*	*	*Xij	*	*
.	.	0g	e-	.	.	.	.	.	.	1r	.	.	.	.	.
*	*	*	*	*	*	*	*	*	*	*	*ij	*	*	*	*
1B	e-	.	.	1b	e-	1dd	e-	1G	e-	1g	e-	1g	e-	1gg	-e-
=255-	=255-	=255-	=255-	=255-	=255-	=255-	=255-	=255-	=255-	=255-	=255-	=255-	=255-	=255-	=255-
0c	-ia	00.g	-ia.	0g	-ia	0cc	-ia	0c	-ia	0g	-ia	0g	-ia	0ee	-ia-
*	*Xij	*	*	*	*	*	*	*	*	*	*Xij	*	*	*	*
!	!	!	!	!LO:TX:a:t=P:problem=niewyraźne źródło	!	!	!	!	!	!	!	!	!	!	!
1c	e-	.	.	1ryy	e-	1cc	e-	1c	e-	1e	e-	1g	E-	1ee	-e-
=256-	=256-	=256-	=256-	=256-	=256-	=256-	=256-	=256-	=256-	=256-	=256-	=256-	=256-	=256-	=256-
0.G;	-ia	.	.	0.b;	-ia	0.dd;	-ia.	0.g;	-ia.	0.g;	-ia	0.b;	-ia.	0.dd;	-ia.
=-	=-	=-	=-	=-	=-	=-	=-	=-	=-	=-	=-	=-	=-	=-	=-
*-	*-	*-	*-	*-	*-	*-	*-	*-	*-	*-	*-	*-	*-	*-	*-
!!!system-decoration: [(s1,s2,s3,s4)][(s5,s6,s7,s8)]
!!!RDF**kern: < = below
!!!RDF**kern: > = above
!!!ENC: Anastazja Marusiak
!!!END: 2021-10-19
!!!ENC: Marta Chmielewska
!!!END: 2021-10-26
